; nova3d.cn NovaMaker v2.4.20 64-bits 2020-08-08 11:15:56
;(****Build and Slicing Parameters****)
;(Pix per mm X            = 19.324 )
;(Pix per mm Y            = 19.324 )
;(X Resolution            = 1352 )
;(Y Resolution            = 2512 )
;(Layer Thickness         = 0.05000 mm )
;(Layer Time              = 6000 ms )
;(Render Outlines         = False
;(Outline Width Inset     = 2
;(Outline Width Outset    = 0
;(Bottom Layers Time      = 40000 ms )
;(Number of Bottom Layers = 5 )
;(Blanking Layer Time     = 0 ms )
;(Build Direction         = Bottom_Up)
;(Lift Distance           = 4 mm )
;(Slide/Tilt Value        = 0)
;(Use Mainlift GCode Tab  = False)
;(Anti Aliasing           = True)
;(Anti Aliasing Value     = 3.0 )
;(Z Lift Feed Rate        = 120.0 mm/s )
;(Z Bottom Lift Feed Rate = 120.0 mm/s )
;(Z Lift Retract Rate     = 120.0 mm/s )
;(Flip X                  = True)
;(Flip Y                  = True)
;Number of Slices         = 668
;(****Machine Configuration ******)  
;(Platform X Size         = 65.02mm )
;(Platform Y Size         = 116mm )  
;(Platform Z Size         = 130mm )  
;(Max X Feedrate          = 200mm/s )
;(Max Y Feedrate          = 200mm/s )
;(Max Z Feedrate          = 200mm/s )
;(Machine Type            = UV_LCD)  

G28
G21 ;Set units to be mm
G91 ;Relative Positioning
M17 ;Enable motors
<Slice> Blank
M106 S0

;<Slice> 0
M106 S255
;<Delay> 40000
M106 S0
;<Slice> Blank
G1 Z4.000 F20
G1 Z-3.950 F20
;<Delay> 34000

;<Slice> 1
M106 S255
;<Delay> 40000
M106 S0
;<Slice> Blank
G1 Z4.000 F20
G1 Z-3.950 F20
;<Delay> 34000

;<Slice> 2
M106 S255
;<Delay> 40000
M106 S0
;<Slice> Blank
G1 Z4.000 F20
G1 Z-3.950 F20
;<Delay> 34000

;<Slice> 3
M106 S255
;<Delay> 40000
M106 S0
;<Slice> Blank
G1 Z4.000 F20
G1 Z-3.950 F20
;<Delay> 34000

;<Slice> 4
M106 S255
;<Delay> 40000
M106 S0
;<Slice> Blank
G1 Z4.000 F20
G1 Z-3.950 F20
;<Delay> 34000

;<Slice> 5
M106 S255
;<Delay> 6000
M106 S0
;<Slice> Blank
G1 Z4.000 F30
G1 Z-3.950 F30
;<Delay> 24000

;<Slice> 6
M106 S255
;<Delay> 6000
M106 S0
;<Slice> Blank
G1 Z4.000 F30
G1 Z-3.950 F30
;<Delay> 24000

;<Slice> 7
M106 S255
;<Delay> 6000
M106 S0
;<Slice> Blank
G1 Z4.000 F30
G1 Z-3.950 F30
;<Delay> 24000

;<Slice> 8
M106 S255
;<Delay> 6000
M106 S0
;<Slice> Blank
G1 Z4.000 F30
G1 Z-3.950 F30
;<Delay> 24000

;<Slice> 9
M106 S255
;<Delay> 6000
M106 S0
;<Slice> Blank
G1 Z4.000 F30
G1 Z-3.950 F30
;<Delay> 24000

;<Slice> 10
M106 S255
;<Delay> 6000
M106 S0
;<Slice> Blank
G1 Z4.000 F120
G1 Z-3.950 F120
;<Delay> 6000

;<Slice> 11
M106 S255
;<Delay> 6000
M106 S0
;<Slice> Blank
G1 Z4.000 F120
G1 Z-3.950 F120
;<Delay> 6000

;<Slice> 12
M106 S255
;<Delay> 6000
M106 S0
;<Slice> Blank
G1 Z4.000 F120
G1 Z-3.950 F120
;<Delay> 6000

;<Slice> 13
M106 S255
;<Delay> 6000
M106 S0
;<Slice> Blank
G1 Z4.000 F120
G1 Z-3.950 F120
;<Delay> 6000

;<Slice> 14
M106 S255
;<Delay> 6000
M106 S0
;<Slice> Blank
G1 Z4.000 F120
G1 Z-3.950 F120
;<Delay> 6000

;<Slice> 15
M106 S255
;<Delay> 6000
M106 S0
;<Slice> Blank
G1 Z4.000 F120
G1 Z-3.950 F120
;<Delay> 6000

;<Slice> 16
M106 S255
;<Delay> 6000
M106 S0
;<Slice> Blank
G1 Z4.000 F120
G1 Z-3.950 F120
;<Delay> 6000

;<Slice> 17
M106 S255
;<Delay> 6000
M106 S0
;<Slice> Blank
G1 Z4.000 F120
G1 Z-3.950 F120
;<Delay> 6000

;<Slice> 18
M106 S255
;<Delay> 6000
M106 S0
;<Slice> Blank
G1 Z4.000 F120
G1 Z-3.950 F120
;<Delay> 6000

;<Slice> 19
M106 S255
;<Delay> 6000
M106 S0
;<Slice> Blank
G1 Z4.000 F120
G1 Z-3.950 F120
;<Delay> 6000

;<Slice> 20
M106 S255
;<Delay> 6000
M106 S0
;<Slice> Blank
G1 Z4.000 F120
G1 Z-3.950 F120
;<Delay> 6000

;<Slice> 21
M106 S255
;<Delay> 6000
M106 S0
;<Slice> Blank
G1 Z4.000 F120
G1 Z-3.950 F120
;<Delay> 6000

;<Slice> 22
M106 S255
;<Delay> 6000
M106 S0
;<Slice> Blank
G1 Z4.000 F120
G1 Z-3.950 F120
;<Delay> 6000

;<Slice> 23
M106 S255
;<Delay> 6000
M106 S0
;<Slice> Blank
G1 Z4.000 F120
G1 Z-3.950 F120
;<Delay> 6000

;<Slice> 24
M106 S255
;<Delay> 6000
M106 S0
;<Slice> Blank
G1 Z4.000 F120
G1 Z-3.950 F120
;<Delay> 6000

;<Slice> 25
M106 S255
;<Delay> 6000
M106 S0
;<Slice> Blank
G1 Z4.000 F120
G1 Z-3.950 F120
;<Delay> 6000

;<Slice> 26
M106 S255
;<Delay> 6000
M106 S0
;<Slice> Blank
G1 Z4.000 F120
G1 Z-3.950 F120
;<Delay> 6000

;<Slice> 27
M106 S255
;<Delay> 6000
M106 S0
;<Slice> Blank
G1 Z4.000 F120
G1 Z-3.950 F120
;<Delay> 6000

;<Slice> 28
M106 S255
;<Delay> 6000
M106 S0
;<Slice> Blank
G1 Z4.000 F120
G1 Z-3.950 F120
;<Delay> 6000

;<Slice> 29
M106 S255
;<Delay> 6000
M106 S0
;<Slice> Blank
G1 Z4.000 F120
G1 Z-3.950 F120
;<Delay> 6000

;<Slice> 30
M106 S255
;<Delay> 6000
M106 S0
;<Slice> Blank
G1 Z4.000 F120
G1 Z-3.950 F120
;<Delay> 6000

;<Slice> 31
M106 S255
;<Delay> 6000
M106 S0
;<Slice> Blank
G1 Z4.000 F120
G1 Z-3.950 F120
;<Delay> 6000

;<Slice> 32
M106 S255
;<Delay> 6000
M106 S0
;<Slice> Blank
G1 Z4.000 F120
G1 Z-3.950 F120
;<Delay> 6000

;<Slice> 33
M106 S255
;<Delay> 6000
M106 S0
;<Slice> Blank
G1 Z4.000 F120
G1 Z-3.950 F120
;<Delay> 6000

;<Slice> 34
M106 S255
;<Delay> 6000
M106 S0
;<Slice> Blank
G1 Z4.000 F120
G1 Z-3.950 F120
;<Delay> 6000

;<Slice> 35
M106 S255
;<Delay> 6000
M106 S0
;<Slice> Blank
G1 Z4.000 F120
G1 Z-3.950 F120
;<Delay> 6000

;<Slice> 36
M106 S255
;<Delay> 6000
M106 S0
;<Slice> Blank
G1 Z4.000 F120
G1 Z-3.950 F120
;<Delay> 6000

;<Slice> 37
M106 S255
;<Delay> 6000
M106 S0
;<Slice> Blank
G1 Z4.000 F120
G1 Z-3.950 F120
;<Delay> 6000

;<Slice> 38
M106 S255
;<Delay> 6000
M106 S0
;<Slice> Blank
G1 Z4.000 F120
G1 Z-3.950 F120
;<Delay> 6000

;<Slice> 39
M106 S255
;<Delay> 6000
M106 S0
;<Slice> Blank
G1 Z4.000 F120
G1 Z-3.950 F120
;<Delay> 6000

;<Slice> 40
M106 S255
;<Delay> 6000
M106 S0
;<Slice> Blank
G1 Z4.000 F120
G1 Z-3.950 F120
;<Delay> 6000

;<Slice> 41
M106 S255
;<Delay> 6000
M106 S0
;<Slice> Blank
G1 Z4.000 F120
G1 Z-3.950 F120
;<Delay> 6000

;<Slice> 42
M106 S255
;<Delay> 6000
M106 S0
;<Slice> Blank
G1 Z4.000 F120
G1 Z-3.950 F120
;<Delay> 6000

;<Slice> 43
M106 S255
;<Delay> 6000
M106 S0
;<Slice> Blank
G1 Z4.000 F120
G1 Z-3.950 F120
;<Delay> 6000

;<Slice> 44
M106 S255
;<Delay> 6000
M106 S0
;<Slice> Blank
G1 Z4.000 F120
G1 Z-3.950 F120
;<Delay> 6000

;<Slice> 45
M106 S255
;<Delay> 6000
M106 S0
;<Slice> Blank
G1 Z4.000 F120
G1 Z-3.950 F120
;<Delay> 6000

;<Slice> 46
M106 S255
;<Delay> 6000
M106 S0
;<Slice> Blank
G1 Z4.000 F120
G1 Z-3.950 F120
;<Delay> 6000

;<Slice> 47
M106 S255
;<Delay> 6000
M106 S0
;<Slice> Blank
G1 Z4.000 F120
G1 Z-3.950 F120
;<Delay> 6000

;<Slice> 48
M106 S255
;<Delay> 6000
M106 S0
;<Slice> Blank
G1 Z4.000 F120
G1 Z-3.950 F120
;<Delay> 6000

;<Slice> 49
M106 S255
;<Delay> 6000
M106 S0
;<Slice> Blank
G1 Z4.000 F120
G1 Z-3.950 F120
;<Delay> 6000

;<Slice> 50
M106 S255
;<Delay> 6000
M106 S0
;<Slice> Blank
G1 Z4.000 F120
G1 Z-3.950 F120
;<Delay> 6000

;<Slice> 51
M106 S255
;<Delay> 6000
M106 S0
;<Slice> Blank
G1 Z4.000 F120
G1 Z-3.950 F120
;<Delay> 6000

;<Slice> 52
M106 S255
;<Delay> 6000
M106 S0
;<Slice> Blank
G1 Z4.000 F120
G1 Z-3.950 F120
;<Delay> 6000

;<Slice> 53
M106 S255
;<Delay> 6000
M106 S0
;<Slice> Blank
G1 Z4.000 F120
G1 Z-3.950 F120
;<Delay> 6000

;<Slice> 54
M106 S255
;<Delay> 6000
M106 S0
;<Slice> Blank
G1 Z4.000 F120
G1 Z-3.950 F120
;<Delay> 6000

;<Slice> 55
M106 S255
;<Delay> 6000
M106 S0
;<Slice> Blank
G1 Z4.000 F120
G1 Z-3.950 F120
;<Delay> 6000

;<Slice> 56
M106 S255
;<Delay> 6000
M106 S0
;<Slice> Blank
G1 Z4.000 F120
G1 Z-3.950 F120
;<Delay> 6000

;<Slice> 57
M106 S255
;<Delay> 6000
M106 S0
;<Slice> Blank
G1 Z4.000 F120
G1 Z-3.950 F120
;<Delay> 6000

;<Slice> 58
M106 S255
;<Delay> 6000
M106 S0
;<Slice> Blank
G1 Z4.000 F120
G1 Z-3.950 F120
;<Delay> 6000

;<Slice> 59
M106 S255
;<Delay> 6000
M106 S0
;<Slice> Blank
G1 Z4.000 F120
G1 Z-3.950 F120
;<Delay> 6000

;<Slice> 60
M106 S255
;<Delay> 6000
M106 S0
;<Slice> Blank
G1 Z4.000 F120
G1 Z-3.950 F120
;<Delay> 6000

;<Slice> 61
M106 S255
;<Delay> 6000
M106 S0
;<Slice> Blank
G1 Z4.000 F120
G1 Z-3.950 F120
;<Delay> 6000

;<Slice> 62
M106 S255
;<Delay> 6000
M106 S0
;<Slice> Blank
G1 Z4.000 F120
G1 Z-3.950 F120
;<Delay> 6000

;<Slice> 63
M106 S255
;<Delay> 6000
M106 S0
;<Slice> Blank
G1 Z4.000 F120
G1 Z-3.950 F120
;<Delay> 6000

;<Slice> 64
M106 S255
;<Delay> 6000
M106 S0
;<Slice> Blank
G1 Z4.000 F120
G1 Z-3.950 F120
;<Delay> 6000

;<Slice> 65
M106 S255
;<Delay> 6000
M106 S0
;<Slice> Blank
G1 Z4.000 F120
G1 Z-3.950 F120
;<Delay> 6000

;<Slice> 66
M106 S255
;<Delay> 6000
M106 S0
;<Slice> Blank
G1 Z4.000 F120
G1 Z-3.950 F120
;<Delay> 6000

;<Slice> 67
M106 S255
;<Delay> 6000
M106 S0
;<Slice> Blank
G1 Z4.000 F120
G1 Z-3.950 F120
;<Delay> 6000

;<Slice> 68
M106 S255
;<Delay> 6000
M106 S0
;<Slice> Blank
G1 Z4.000 F120
G1 Z-3.950 F120
;<Delay> 6000

;<Slice> 69
M106 S255
;<Delay> 6000
M106 S0
;<Slice> Blank
G1 Z4.000 F120
G1 Z-3.950 F120
;<Delay> 6000

;<Slice> 70
M106 S255
;<Delay> 6000
M106 S0
;<Slice> Blank
G1 Z4.000 F120
G1 Z-3.950 F120
;<Delay> 6000

;<Slice> 71
M106 S255
;<Delay> 6000
M106 S0
;<Slice> Blank
G1 Z4.000 F120
G1 Z-3.950 F120
;<Delay> 6000

;<Slice> 72
M106 S255
;<Delay> 6000
M106 S0
;<Slice> Blank
G1 Z4.000 F120
G1 Z-3.950 F120
;<Delay> 6000

;<Slice> 73
M106 S255
;<Delay> 6000
M106 S0
;<Slice> Blank
G1 Z4.000 F120
G1 Z-3.950 F120
;<Delay> 6000

;<Slice> 74
M106 S255
;<Delay> 6000
M106 S0
;<Slice> Blank
G1 Z4.000 F120
G1 Z-3.950 F120
;<Delay> 6000

;<Slice> 75
M106 S255
;<Delay> 6000
M106 S0
;<Slice> Blank
G1 Z4.000 F120
G1 Z-3.950 F120
;<Delay> 6000

;<Slice> 76
M106 S255
;<Delay> 6000
M106 S0
;<Slice> Blank
G1 Z4.000 F120
G1 Z-3.950 F120
;<Delay> 6000

;<Slice> 77
M106 S255
;<Delay> 6000
M106 S0
;<Slice> Blank
G1 Z4.000 F120
G1 Z-3.950 F120
;<Delay> 6000

;<Slice> 78
M106 S255
;<Delay> 6000
M106 S0
;<Slice> Blank
G1 Z4.000 F120
G1 Z-3.950 F120
;<Delay> 6000

;<Slice> 79
M106 S255
;<Delay> 6000
M106 S0
;<Slice> Blank
G1 Z4.000 F120
G1 Z-3.950 F120
;<Delay> 6000

;<Slice> 80
M106 S255
;<Delay> 6000
M106 S0
;<Slice> Blank
G1 Z4.000 F120
G1 Z-3.950 F120
;<Delay> 6000

;<Slice> 81
M106 S255
;<Delay> 6000
M106 S0
;<Slice> Blank
G1 Z4.000 F120
G1 Z-3.950 F120
;<Delay> 6000

;<Slice> 82
M106 S255
;<Delay> 6000
M106 S0
;<Slice> Blank
G1 Z4.000 F120
G1 Z-3.950 F120
;<Delay> 6000

;<Slice> 83
M106 S255
;<Delay> 6000
M106 S0
;<Slice> Blank
G1 Z4.000 F120
G1 Z-3.950 F120
;<Delay> 6000

;<Slice> 84
M106 S255
;<Delay> 6000
M106 S0
;<Slice> Blank
G1 Z4.000 F120
G1 Z-3.950 F120
;<Delay> 6000

;<Slice> 85
M106 S255
;<Delay> 6000
M106 S0
;<Slice> Blank
G1 Z4.000 F120
G1 Z-3.950 F120
;<Delay> 6000

;<Slice> 86
M106 S255
;<Delay> 6000
M106 S0
;<Slice> Blank
G1 Z4.000 F120
G1 Z-3.950 F120
;<Delay> 6000

;<Slice> 87
M106 S255
;<Delay> 6000
M106 S0
;<Slice> Blank
G1 Z4.000 F120
G1 Z-3.950 F120
;<Delay> 6000

;<Slice> 88
M106 S255
;<Delay> 6000
M106 S0
;<Slice> Blank
G1 Z4.000 F120
G1 Z-3.950 F120
;<Delay> 6000

;<Slice> 89
M106 S255
;<Delay> 6000
M106 S0
;<Slice> Blank
G1 Z4.000 F120
G1 Z-3.950 F120
;<Delay> 6000

;<Slice> 90
M106 S255
;<Delay> 6000
M106 S0
;<Slice> Blank
G1 Z4.000 F120
G1 Z-3.950 F120
;<Delay> 6000

;<Slice> 91
M106 S255
;<Delay> 6000
M106 S0
;<Slice> Blank
G1 Z4.000 F120
G1 Z-3.950 F120
;<Delay> 6000

;<Slice> 92
M106 S255
;<Delay> 6000
M106 S0
;<Slice> Blank
G1 Z4.000 F120
G1 Z-3.950 F120
;<Delay> 6000

;<Slice> 93
M106 S255
;<Delay> 6000
M106 S0
;<Slice> Blank
G1 Z4.000 F120
G1 Z-3.950 F120
;<Delay> 6000

;<Slice> 94
M106 S255
;<Delay> 6000
M106 S0
;<Slice> Blank
G1 Z4.000 F120
G1 Z-3.950 F120
;<Delay> 6000

;<Slice> 95
M106 S255
;<Delay> 6000
M106 S0
;<Slice> Blank
G1 Z4.000 F120
G1 Z-3.950 F120
;<Delay> 6000

;<Slice> 96
M106 S255
;<Delay> 6000
M106 S0
;<Slice> Blank
G1 Z4.000 F120
G1 Z-3.950 F120
;<Delay> 6000

;<Slice> 97
M106 S255
;<Delay> 6000
M106 S0
;<Slice> Blank
G1 Z4.000 F120
G1 Z-3.950 F120
;<Delay> 6000

;<Slice> 98
M106 S255
;<Delay> 6000
M106 S0
;<Slice> Blank
G1 Z4.000 F120
G1 Z-3.950 F120
;<Delay> 6000

;<Slice> 99
M106 S255
;<Delay> 6000
M106 S0
;<Slice> Blank
G1 Z4.000 F120
G1 Z-3.950 F120
;<Delay> 6000

;<Slice> 100
M106 S255
;<Delay> 6000
M106 S0
;<Slice> Blank
G1 Z4.000 F120
G1 Z-3.950 F120
;<Delay> 6000

;<Slice> 101
M106 S255
;<Delay> 6000
M106 S0
;<Slice> Blank
G1 Z4.000 F120
G1 Z-3.950 F120
;<Delay> 6000

;<Slice> 102
M106 S255
;<Delay> 6000
M106 S0
;<Slice> Blank
G1 Z4.000 F120
G1 Z-3.950 F120
;<Delay> 6000

;<Slice> 103
M106 S255
;<Delay> 6000
M106 S0
;<Slice> Blank
G1 Z4.000 F120
G1 Z-3.950 F120
;<Delay> 6000

;<Slice> 104
M106 S255
;<Delay> 6000
M106 S0
;<Slice> Blank
G1 Z4.000 F120
G1 Z-3.950 F120
;<Delay> 6000

;<Slice> 105
M106 S255
;<Delay> 6000
M106 S0
;<Slice> Blank
G1 Z4.000 F120
G1 Z-3.950 F120
;<Delay> 6000

;<Slice> 106
M106 S255
;<Delay> 6000
M106 S0
;<Slice> Blank
G1 Z4.000 F120
G1 Z-3.950 F120
;<Delay> 6000

;<Slice> 107
M106 S255
;<Delay> 6000
M106 S0
;<Slice> Blank
G1 Z4.000 F120
G1 Z-3.950 F120
;<Delay> 6000

;<Slice> 108
M106 S255
;<Delay> 6000
M106 S0
;<Slice> Blank
G1 Z4.000 F120
G1 Z-3.950 F120
;<Delay> 6000

;<Slice> 109
M106 S255
;<Delay> 6000
M106 S0
;<Slice> Blank
G1 Z4.000 F120
G1 Z-3.950 F120
;<Delay> 6000

;<Slice> 110
M106 S255
;<Delay> 6000
M106 S0
;<Slice> Blank
G1 Z4.000 F120
G1 Z-3.950 F120
;<Delay> 6000

;<Slice> 111
M106 S255
;<Delay> 6000
M106 S0
;<Slice> Blank
G1 Z4.000 F120
G1 Z-3.950 F120
;<Delay> 6000

;<Slice> 112
M106 S255
;<Delay> 6000
M106 S0
;<Slice> Blank
G1 Z4.000 F120
G1 Z-3.950 F120
;<Delay> 6000

;<Slice> 113
M106 S255
;<Delay> 6000
M106 S0
;<Slice> Blank
G1 Z4.000 F120
G1 Z-3.950 F120
;<Delay> 6000

;<Slice> 114
M106 S255
;<Delay> 6000
M106 S0
;<Slice> Blank
G1 Z4.000 F120
G1 Z-3.950 F120
;<Delay> 6000

;<Slice> 115
M106 S255
;<Delay> 6000
M106 S0
;<Slice> Blank
G1 Z4.000 F120
G1 Z-3.950 F120
;<Delay> 6000

;<Slice> 116
M106 S255
;<Delay> 6000
M106 S0
;<Slice> Blank
G1 Z4.000 F120
G1 Z-3.950 F120
;<Delay> 6000

;<Slice> 117
M106 S255
;<Delay> 6000
M106 S0
;<Slice> Blank
G1 Z4.000 F120
G1 Z-3.950 F120
;<Delay> 6000

;<Slice> 118
M106 S255
;<Delay> 6000
M106 S0
;<Slice> Blank
G1 Z4.000 F120
G1 Z-3.950 F120
;<Delay> 6000

;<Slice> 119
M106 S255
;<Delay> 6000
M106 S0
;<Slice> Blank
G1 Z4.000 F120
G1 Z-3.950 F120
;<Delay> 6000

;<Slice> 120
M106 S255
;<Delay> 6000
M106 S0
;<Slice> Blank
G1 Z4.000 F120
G1 Z-3.950 F120
;<Delay> 6000

;<Slice> 121
M106 S255
;<Delay> 6000
M106 S0
;<Slice> Blank
G1 Z4.000 F120
G1 Z-3.950 F120
;<Delay> 6000

;<Slice> 122
M106 S255
;<Delay> 6000
M106 S0
;<Slice> Blank
G1 Z4.000 F120
G1 Z-3.950 F120
;<Delay> 6000

;<Slice> 123
M106 S255
;<Delay> 6000
M106 S0
;<Slice> Blank
G1 Z4.000 F120
G1 Z-3.950 F120
;<Delay> 6000

;<Slice> 124
M106 S255
;<Delay> 6000
M106 S0
;<Slice> Blank
G1 Z4.000 F120
G1 Z-3.950 F120
;<Delay> 6000

;<Slice> 125
M106 S255
;<Delay> 6000
M106 S0
;<Slice> Blank
G1 Z4.000 F120
G1 Z-3.950 F120
;<Delay> 6000

;<Slice> 126
M106 S255
;<Delay> 6000
M106 S0
;<Slice> Blank
G1 Z4.000 F120
G1 Z-3.950 F120
;<Delay> 6000

;<Slice> 127
M106 S255
;<Delay> 6000
M106 S0
;<Slice> Blank
G1 Z4.000 F120
G1 Z-3.950 F120
;<Delay> 6000

;<Slice> 128
M106 S255
;<Delay> 6000
M106 S0
;<Slice> Blank
G1 Z4.000 F120
G1 Z-3.950 F120
;<Delay> 6000

;<Slice> 129
M106 S255
;<Delay> 6000
M106 S0
;<Slice> Blank
G1 Z4.000 F120
G1 Z-3.950 F120
;<Delay> 6000

;<Slice> 130
M106 S255
;<Delay> 6000
M106 S0
;<Slice> Blank
G1 Z4.000 F120
G1 Z-3.950 F120
;<Delay> 6000

;<Slice> 131
M106 S255
;<Delay> 6000
M106 S0
;<Slice> Blank
G1 Z4.000 F120
G1 Z-3.950 F120
;<Delay> 6000

;<Slice> 132
M106 S255
;<Delay> 6000
M106 S0
;<Slice> Blank
G1 Z4.000 F120
G1 Z-3.950 F120
;<Delay> 6000

;<Slice> 133
M106 S255
;<Delay> 6000
M106 S0
;<Slice> Blank
G1 Z4.000 F120
G1 Z-3.950 F120
;<Delay> 6000

;<Slice> 134
M106 S255
;<Delay> 6000
M106 S0
;<Slice> Blank
G1 Z4.000 F120
G1 Z-3.950 F120
;<Delay> 6000

;<Slice> 135
M106 S255
;<Delay> 6000
M106 S0
;<Slice> Blank
G1 Z4.000 F120
G1 Z-3.950 F120
;<Delay> 6000

;<Slice> 136
M106 S255
;<Delay> 6000
M106 S0
;<Slice> Blank
G1 Z4.000 F120
G1 Z-3.950 F120
;<Delay> 6000

;<Slice> 137
M106 S255
;<Delay> 6000
M106 S0
;<Slice> Blank
G1 Z4.000 F120
G1 Z-3.950 F120
;<Delay> 6000

;<Slice> 138
M106 S255
;<Delay> 6000
M106 S0
;<Slice> Blank
G1 Z4.000 F120
G1 Z-3.950 F120
;<Delay> 6000

;<Slice> 139
M106 S255
;<Delay> 6000
M106 S0
;<Slice> Blank
G1 Z4.000 F120
G1 Z-3.950 F120
;<Delay> 6000

;<Slice> 140
M106 S255
;<Delay> 6000
M106 S0
;<Slice> Blank
G1 Z4.000 F120
G1 Z-3.950 F120
;<Delay> 6000

;<Slice> 141
M106 S255
;<Delay> 6000
M106 S0
;<Slice> Blank
G1 Z4.000 F120
G1 Z-3.950 F120
;<Delay> 6000

;<Slice> 142
M106 S255
;<Delay> 6000
M106 S0
;<Slice> Blank
G1 Z4.000 F120
G1 Z-3.950 F120
;<Delay> 6000

;<Slice> 143
M106 S255
;<Delay> 6000
M106 S0
;<Slice> Blank
G1 Z4.000 F120
G1 Z-3.950 F120
;<Delay> 6000

;<Slice> 144
M106 S255
;<Delay> 6000
M106 S0
;<Slice> Blank
G1 Z4.000 F120
G1 Z-3.950 F120
;<Delay> 6000

;<Slice> 145
M106 S255
;<Delay> 6000
M106 S0
;<Slice> Blank
G1 Z4.000 F120
G1 Z-3.950 F120
;<Delay> 6000

;<Slice> 146
M106 S255
;<Delay> 6000
M106 S0
;<Slice> Blank
G1 Z4.000 F120
G1 Z-3.950 F120
;<Delay> 6000

;<Slice> 147
M106 S255
;<Delay> 6000
M106 S0
;<Slice> Blank
G1 Z4.000 F120
G1 Z-3.950 F120
;<Delay> 6000

;<Slice> 148
M106 S255
;<Delay> 6000
M106 S0
;<Slice> Blank
G1 Z4.000 F120
G1 Z-3.950 F120
;<Delay> 6000

;<Slice> 149
M106 S255
;<Delay> 6000
M106 S0
;<Slice> Blank
G1 Z4.000 F120
G1 Z-3.950 F120
;<Delay> 6000

;<Slice> 150
M106 S255
;<Delay> 6000
M106 S0
;<Slice> Blank
G1 Z4.000 F120
G1 Z-3.950 F120
;<Delay> 6000

;<Slice> 151
M106 S255
;<Delay> 6000
M106 S0
;<Slice> Blank
G1 Z4.000 F120
G1 Z-3.950 F120
;<Delay> 6000

;<Slice> 152
M106 S255
;<Delay> 6000
M106 S0
;<Slice> Blank
G1 Z4.000 F120
G1 Z-3.950 F120
;<Delay> 6000

;<Slice> 153
M106 S255
;<Delay> 6000
M106 S0
;<Slice> Blank
G1 Z4.000 F120
G1 Z-3.950 F120
;<Delay> 6000

;<Slice> 154
M106 S255
;<Delay> 6000
M106 S0
;<Slice> Blank
G1 Z4.000 F120
G1 Z-3.950 F120
;<Delay> 6000

;<Slice> 155
M106 S255
;<Delay> 6000
M106 S0
;<Slice> Blank
G1 Z4.000 F120
G1 Z-3.950 F120
;<Delay> 6000

;<Slice> 156
M106 S255
;<Delay> 6000
M106 S0
;<Slice> Blank
G1 Z4.000 F120
G1 Z-3.950 F120
;<Delay> 6000

;<Slice> 157
M106 S255
;<Delay> 6000
M106 S0
;<Slice> Blank
G1 Z4.000 F120
G1 Z-3.950 F120
;<Delay> 6000

;<Slice> 158
M106 S255
;<Delay> 6000
M106 S0
;<Slice> Blank
G1 Z4.000 F120
G1 Z-3.950 F120
;<Delay> 6000

;<Slice> 159
M106 S255
;<Delay> 6000
M106 S0
;<Slice> Blank
G1 Z4.000 F120
G1 Z-3.950 F120
;<Delay> 6000

;<Slice> 160
M106 S255
;<Delay> 6000
M106 S0
;<Slice> Blank
G1 Z4.000 F120
G1 Z-3.950 F120
;<Delay> 6000

;<Slice> 161
M106 S255
;<Delay> 6000
M106 S0
;<Slice> Blank
G1 Z4.000 F120
G1 Z-3.950 F120
;<Delay> 6000

;<Slice> 162
M106 S255
;<Delay> 6000
M106 S0
;<Slice> Blank
G1 Z4.000 F120
G1 Z-3.950 F120
;<Delay> 6000

;<Slice> 163
M106 S255
;<Delay> 6000
M106 S0
;<Slice> Blank
G1 Z4.000 F120
G1 Z-3.950 F120
;<Delay> 6000

;<Slice> 164
M106 S255
;<Delay> 6000
M106 S0
;<Slice> Blank
G1 Z4.000 F120
G1 Z-3.950 F120
;<Delay> 6000

;<Slice> 165
M106 S255
;<Delay> 6000
M106 S0
;<Slice> Blank
G1 Z4.000 F120
G1 Z-3.950 F120
;<Delay> 6000

;<Slice> 166
M106 S255
;<Delay> 6000
M106 S0
;<Slice> Blank
G1 Z4.000 F120
G1 Z-3.950 F120
;<Delay> 6000

;<Slice> 167
M106 S255
;<Delay> 6000
M106 S0
;<Slice> Blank
G1 Z4.000 F120
G1 Z-3.950 F120
;<Delay> 6000

;<Slice> 168
M106 S255
;<Delay> 6000
M106 S0
;<Slice> Blank
G1 Z4.000 F120
G1 Z-3.950 F120
;<Delay> 6000

;<Slice> 169
M106 S255
;<Delay> 6000
M106 S0
;<Slice> Blank
G1 Z4.000 F120
G1 Z-3.950 F120
;<Delay> 6000

;<Slice> 170
M106 S255
;<Delay> 6000
M106 S0
;<Slice> Blank
G1 Z4.000 F120
G1 Z-3.950 F120
;<Delay> 6000

;<Slice> 171
M106 S255
;<Delay> 6000
M106 S0
;<Slice> Blank
G1 Z4.000 F120
G1 Z-3.950 F120
;<Delay> 6000

;<Slice> 172
M106 S255
;<Delay> 6000
M106 S0
;<Slice> Blank
G1 Z4.000 F120
G1 Z-3.950 F120
;<Delay> 6000

;<Slice> 173
M106 S255
;<Delay> 6000
M106 S0
;<Slice> Blank
G1 Z4.000 F120
G1 Z-3.950 F120
;<Delay> 6000

;<Slice> 174
M106 S255
;<Delay> 6000
M106 S0
;<Slice> Blank
G1 Z4.000 F120
G1 Z-3.950 F120
;<Delay> 6000

;<Slice> 175
M106 S255
;<Delay> 6000
M106 S0
;<Slice> Blank
G1 Z4.000 F120
G1 Z-3.950 F120
;<Delay> 6000

;<Slice> 176
M106 S255
;<Delay> 6000
M106 S0
;<Slice> Blank
G1 Z4.000 F120
G1 Z-3.950 F120
;<Delay> 6000

;<Slice> 177
M106 S255
;<Delay> 6000
M106 S0
;<Slice> Blank
G1 Z4.000 F120
G1 Z-3.950 F120
;<Delay> 6000

;<Slice> 178
M106 S255
;<Delay> 6000
M106 S0
;<Slice> Blank
G1 Z4.000 F120
G1 Z-3.950 F120
;<Delay> 6000

;<Slice> 179
M106 S255
;<Delay> 6000
M106 S0
;<Slice> Blank
G1 Z4.000 F120
G1 Z-3.950 F120
;<Delay> 6000

;<Slice> 180
M106 S255
;<Delay> 6000
M106 S0
;<Slice> Blank
G1 Z4.000 F120
G1 Z-3.950 F120
;<Delay> 6000

;<Slice> 181
M106 S255
;<Delay> 6000
M106 S0
;<Slice> Blank
G1 Z4.000 F120
G1 Z-3.950 F120
;<Delay> 6000

;<Slice> 182
M106 S255
;<Delay> 6000
M106 S0
;<Slice> Blank
G1 Z4.000 F120
G1 Z-3.950 F120
;<Delay> 6000

;<Slice> 183
M106 S255
;<Delay> 6000
M106 S0
;<Slice> Blank
G1 Z4.000 F120
G1 Z-3.950 F120
;<Delay> 6000

;<Slice> 184
M106 S255
;<Delay> 6000
M106 S0
;<Slice> Blank
G1 Z4.000 F120
G1 Z-3.950 F120
;<Delay> 6000

;<Slice> 185
M106 S255
;<Delay> 6000
M106 S0
;<Slice> Blank
G1 Z4.000 F120
G1 Z-3.950 F120
;<Delay> 6000

;<Slice> 186
M106 S255
;<Delay> 6000
M106 S0
;<Slice> Blank
G1 Z4.000 F120
G1 Z-3.950 F120
;<Delay> 6000

;<Slice> 187
M106 S255
;<Delay> 6000
M106 S0
;<Slice> Blank
G1 Z4.000 F120
G1 Z-3.950 F120
;<Delay> 6000

;<Slice> 188
M106 S255
;<Delay> 6000
M106 S0
;<Slice> Blank
G1 Z4.000 F120
G1 Z-3.950 F120
;<Delay> 6000

;<Slice> 189
M106 S255
;<Delay> 6000
M106 S0
;<Slice> Blank
G1 Z4.000 F120
G1 Z-3.950 F120
;<Delay> 6000

;<Slice> 190
M106 S255
;<Delay> 6000
M106 S0
;<Slice> Blank
G1 Z4.000 F120
G1 Z-3.950 F120
;<Delay> 6000

;<Slice> 191
M106 S255
;<Delay> 6000
M106 S0
;<Slice> Blank
G1 Z4.000 F120
G1 Z-3.950 F120
;<Delay> 6000

;<Slice> 192
M106 S255
;<Delay> 6000
M106 S0
;<Slice> Blank
G1 Z4.000 F120
G1 Z-3.950 F120
;<Delay> 6000

;<Slice> 193
M106 S255
;<Delay> 6000
M106 S0
;<Slice> Blank
G1 Z4.000 F120
G1 Z-3.950 F120
;<Delay> 6000

;<Slice> 194
M106 S255
;<Delay> 6000
M106 S0
;<Slice> Blank
G1 Z4.000 F120
G1 Z-3.950 F120
;<Delay> 6000

;<Slice> 195
M106 S255
;<Delay> 6000
M106 S0
;<Slice> Blank
G1 Z4.000 F120
G1 Z-3.950 F120
;<Delay> 6000

;<Slice> 196
M106 S255
;<Delay> 6000
M106 S0
;<Slice> Blank
G1 Z4.000 F120
G1 Z-3.950 F120
;<Delay> 6000

;<Slice> 197
M106 S255
;<Delay> 6000
M106 S0
;<Slice> Blank
G1 Z4.000 F120
G1 Z-3.950 F120
;<Delay> 6000

;<Slice> 198
M106 S255
;<Delay> 6000
M106 S0
;<Slice> Blank
G1 Z4.000 F120
G1 Z-3.950 F120
;<Delay> 6000

;<Slice> 199
M106 S255
;<Delay> 6000
M106 S0
;<Slice> Blank
G1 Z4.000 F120
G1 Z-3.950 F120
;<Delay> 6000

;<Slice> 200
M106 S255
;<Delay> 6000
M106 S0
;<Slice> Blank
G1 Z4.000 F120
G1 Z-3.950 F120
;<Delay> 6000

;<Slice> 201
M106 S255
;<Delay> 6000
M106 S0
;<Slice> Blank
G1 Z4.000 F120
G1 Z-3.950 F120
;<Delay> 6000

;<Slice> 202
M106 S255
;<Delay> 6000
M106 S0
;<Slice> Blank
G1 Z4.000 F120
G1 Z-3.950 F120
;<Delay> 6000

;<Slice> 203
M106 S255
;<Delay> 6000
M106 S0
;<Slice> Blank
G1 Z4.000 F120
G1 Z-3.950 F120
;<Delay> 6000

;<Slice> 204
M106 S255
;<Delay> 6000
M106 S0
;<Slice> Blank
G1 Z4.000 F120
G1 Z-3.950 F120
;<Delay> 6000

;<Slice> 205
M106 S255
;<Delay> 6000
M106 S0
;<Slice> Blank
G1 Z4.000 F120
G1 Z-3.950 F120
;<Delay> 6000

;<Slice> 206
M106 S255
;<Delay> 6000
M106 S0
;<Slice> Blank
G1 Z4.000 F120
G1 Z-3.950 F120
;<Delay> 6000

;<Slice> 207
M106 S255
;<Delay> 6000
M106 S0
;<Slice> Blank
G1 Z4.000 F120
G1 Z-3.950 F120
;<Delay> 6000

;<Slice> 208
M106 S255
;<Delay> 6000
M106 S0
;<Slice> Blank
G1 Z4.000 F120
G1 Z-3.950 F120
;<Delay> 6000

;<Slice> 209
M106 S255
;<Delay> 6000
M106 S0
;<Slice> Blank
G1 Z4.000 F120
G1 Z-3.950 F120
;<Delay> 6000

;<Slice> 210
M106 S255
;<Delay> 6000
M106 S0
;<Slice> Blank
G1 Z4.000 F120
G1 Z-3.950 F120
;<Delay> 6000

;<Slice> 211
M106 S255
;<Delay> 6000
M106 S0
;<Slice> Blank
G1 Z4.000 F120
G1 Z-3.950 F120
;<Delay> 6000

;<Slice> 212
M106 S255
;<Delay> 6000
M106 S0
;<Slice> Blank
G1 Z4.000 F120
G1 Z-3.950 F120
;<Delay> 6000

;<Slice> 213
M106 S255
;<Delay> 6000
M106 S0
;<Slice> Blank
G1 Z4.000 F120
G1 Z-3.950 F120
;<Delay> 6000

;<Slice> 214
M106 S255
;<Delay> 6000
M106 S0
;<Slice> Blank
G1 Z4.000 F120
G1 Z-3.950 F120
;<Delay> 6000

;<Slice> 215
M106 S255
;<Delay> 6000
M106 S0
;<Slice> Blank
G1 Z4.000 F120
G1 Z-3.950 F120
;<Delay> 6000

;<Slice> 216
M106 S255
;<Delay> 6000
M106 S0
;<Slice> Blank
G1 Z4.000 F120
G1 Z-3.950 F120
;<Delay> 6000

;<Slice> 217
M106 S255
;<Delay> 6000
M106 S0
;<Slice> Blank
G1 Z4.000 F120
G1 Z-3.950 F120
;<Delay> 6000

;<Slice> 218
M106 S255
;<Delay> 6000
M106 S0
;<Slice> Blank
G1 Z4.000 F120
G1 Z-3.950 F120
;<Delay> 6000

;<Slice> 219
M106 S255
;<Delay> 6000
M106 S0
;<Slice> Blank
G1 Z4.000 F120
G1 Z-3.950 F120
;<Delay> 6000

;<Slice> 220
M106 S255
;<Delay> 6000
M106 S0
;<Slice> Blank
G1 Z4.000 F120
G1 Z-3.950 F120
;<Delay> 6000

;<Slice> 221
M106 S255
;<Delay> 6000
M106 S0
;<Slice> Blank
G1 Z4.000 F120
G1 Z-3.950 F120
;<Delay> 6000

;<Slice> 222
M106 S255
;<Delay> 6000
M106 S0
;<Slice> Blank
G1 Z4.000 F120
G1 Z-3.950 F120
;<Delay> 6000

;<Slice> 223
M106 S255
;<Delay> 6000
M106 S0
;<Slice> Blank
G1 Z4.000 F120
G1 Z-3.950 F120
;<Delay> 6000

;<Slice> 224
M106 S255
;<Delay> 6000
M106 S0
;<Slice> Blank
G1 Z4.000 F120
G1 Z-3.950 F120
;<Delay> 6000

;<Slice> 225
M106 S255
;<Delay> 6000
M106 S0
;<Slice> Blank
G1 Z4.000 F120
G1 Z-3.950 F120
;<Delay> 6000

;<Slice> 226
M106 S255
;<Delay> 6000
M106 S0
;<Slice> Blank
G1 Z4.000 F120
G1 Z-3.950 F120
;<Delay> 6000

;<Slice> 227
M106 S255
;<Delay> 6000
M106 S0
;<Slice> Blank
G1 Z4.000 F120
G1 Z-3.950 F120
;<Delay> 6000

;<Slice> 228
M106 S255
;<Delay> 6000
M106 S0
;<Slice> Blank
G1 Z4.000 F120
G1 Z-3.950 F120
;<Delay> 6000

;<Slice> 229
M106 S255
;<Delay> 6000
M106 S0
;<Slice> Blank
G1 Z4.000 F120
G1 Z-3.950 F120
;<Delay> 6000

;<Slice> 230
M106 S255
;<Delay> 6000
M106 S0
;<Slice> Blank
G1 Z4.000 F120
G1 Z-3.950 F120
;<Delay> 6000

;<Slice> 231
M106 S255
;<Delay> 6000
M106 S0
;<Slice> Blank
G1 Z4.000 F120
G1 Z-3.950 F120
;<Delay> 6000

;<Slice> 232
M106 S255
;<Delay> 6000
M106 S0
;<Slice> Blank
G1 Z4.000 F120
G1 Z-3.950 F120
;<Delay> 6000

;<Slice> 233
M106 S255
;<Delay> 6000
M106 S0
;<Slice> Blank
G1 Z4.000 F120
G1 Z-3.950 F120
;<Delay> 6000

;<Slice> 234
M106 S255
;<Delay> 6000
M106 S0
;<Slice> Blank
G1 Z4.000 F120
G1 Z-3.950 F120
;<Delay> 6000

;<Slice> 235
M106 S255
;<Delay> 6000
M106 S0
;<Slice> Blank
G1 Z4.000 F120
G1 Z-3.950 F120
;<Delay> 6000

;<Slice> 236
M106 S255
;<Delay> 6000
M106 S0
;<Slice> Blank
G1 Z4.000 F120
G1 Z-3.950 F120
;<Delay> 6000

;<Slice> 237
M106 S255
;<Delay> 6000
M106 S0
;<Slice> Blank
G1 Z4.000 F120
G1 Z-3.950 F120
;<Delay> 6000

;<Slice> 238
M106 S255
;<Delay> 6000
M106 S0
;<Slice> Blank
G1 Z4.000 F120
G1 Z-3.950 F120
;<Delay> 6000

;<Slice> 239
M106 S255
;<Delay> 6000
M106 S0
;<Slice> Blank
G1 Z4.000 F120
G1 Z-3.950 F120
;<Delay> 6000

;<Slice> 240
M106 S255
;<Delay> 6000
M106 S0
;<Slice> Blank
G1 Z4.000 F120
G1 Z-3.950 F120
;<Delay> 6000

;<Slice> 241
M106 S255
;<Delay> 6000
M106 S0
;<Slice> Blank
G1 Z4.000 F120
G1 Z-3.950 F120
;<Delay> 6000

;<Slice> 242
M106 S255
;<Delay> 6000
M106 S0
;<Slice> Blank
G1 Z4.000 F120
G1 Z-3.950 F120
;<Delay> 6000

;<Slice> 243
M106 S255
;<Delay> 6000
M106 S0
;<Slice> Blank
G1 Z4.000 F120
G1 Z-3.950 F120
;<Delay> 6000

;<Slice> 244
M106 S255
;<Delay> 6000
M106 S0
;<Slice> Blank
G1 Z4.000 F120
G1 Z-3.950 F120
;<Delay> 6000

;<Slice> 245
M106 S255
;<Delay> 6000
M106 S0
;<Slice> Blank
G1 Z4.000 F120
G1 Z-3.950 F120
;<Delay> 6000

;<Slice> 246
M106 S255
;<Delay> 6000
M106 S0
;<Slice> Blank
G1 Z4.000 F120
G1 Z-3.950 F120
;<Delay> 6000

;<Slice> 247
M106 S255
;<Delay> 6000
M106 S0
;<Slice> Blank
G1 Z4.000 F120
G1 Z-3.950 F120
;<Delay> 6000

;<Slice> 248
M106 S255
;<Delay> 6000
M106 S0
;<Slice> Blank
G1 Z4.000 F120
G1 Z-3.950 F120
;<Delay> 6000

;<Slice> 249
M106 S255
;<Delay> 6000
M106 S0
;<Slice> Blank
G1 Z4.000 F120
G1 Z-3.950 F120
;<Delay> 6000

;<Slice> 250
M106 S255
;<Delay> 6000
M106 S0
;<Slice> Blank
G1 Z4.000 F120
G1 Z-3.950 F120
;<Delay> 6000

;<Slice> 251
M106 S255
;<Delay> 6000
M106 S0
;<Slice> Blank
G1 Z4.000 F120
G1 Z-3.950 F120
;<Delay> 6000

;<Slice> 252
M106 S255
;<Delay> 6000
M106 S0
;<Slice> Blank
G1 Z4.000 F120
G1 Z-3.950 F120
;<Delay> 6000

;<Slice> 253
M106 S255
;<Delay> 6000
M106 S0
;<Slice> Blank
G1 Z4.000 F120
G1 Z-3.950 F120
;<Delay> 6000

;<Slice> 254
M106 S255
;<Delay> 6000
M106 S0
;<Slice> Blank
G1 Z4.000 F120
G1 Z-3.950 F120
;<Delay> 6000

;<Slice> 255
M106 S255
;<Delay> 6000
M106 S0
;<Slice> Blank
G1 Z4.000 F120
G1 Z-3.950 F120
;<Delay> 6000

;<Slice> 256
M106 S255
;<Delay> 6000
M106 S0
;<Slice> Blank
G1 Z4.000 F120
G1 Z-3.950 F120
;<Delay> 6000

;<Slice> 257
M106 S255
;<Delay> 6000
M106 S0
;<Slice> Blank
G1 Z4.000 F120
G1 Z-3.950 F120
;<Delay> 6000

;<Slice> 258
M106 S255
;<Delay> 6000
M106 S0
;<Slice> Blank
G1 Z4.000 F120
G1 Z-3.950 F120
;<Delay> 6000

;<Slice> 259
M106 S255
;<Delay> 6000
M106 S0
;<Slice> Blank
G1 Z4.000 F120
G1 Z-3.950 F120
;<Delay> 6000

;<Slice> 260
M106 S255
;<Delay> 6000
M106 S0
;<Slice> Blank
G1 Z4.000 F120
G1 Z-3.950 F120
;<Delay> 6000

;<Slice> 261
M106 S255
;<Delay> 6000
M106 S0
;<Slice> Blank
G1 Z4.000 F120
G1 Z-3.950 F120
;<Delay> 6000

;<Slice> 262
M106 S255
;<Delay> 6000
M106 S0
;<Slice> Blank
G1 Z4.000 F120
G1 Z-3.950 F120
;<Delay> 6000

;<Slice> 263
M106 S255
;<Delay> 6000
M106 S0
;<Slice> Blank
G1 Z4.000 F120
G1 Z-3.950 F120
;<Delay> 6000

;<Slice> 264
M106 S255
;<Delay> 6000
M106 S0
;<Slice> Blank
G1 Z4.000 F120
G1 Z-3.950 F120
;<Delay> 6000

;<Slice> 265
M106 S255
;<Delay> 6000
M106 S0
;<Slice> Blank
G1 Z4.000 F120
G1 Z-3.950 F120
;<Delay> 6000

;<Slice> 266
M106 S255
;<Delay> 6000
M106 S0
;<Slice> Blank
G1 Z4.000 F120
G1 Z-3.950 F120
;<Delay> 6000

;<Slice> 267
M106 S255
;<Delay> 6000
M106 S0
;<Slice> Blank
G1 Z4.000 F120
G1 Z-3.950 F120
;<Delay> 6000

;<Slice> 268
M106 S255
;<Delay> 6000
M106 S0
;<Slice> Blank
G1 Z4.000 F120
G1 Z-3.950 F120
;<Delay> 6000

;<Slice> 269
M106 S255
;<Delay> 6000
M106 S0
;<Slice> Blank
G1 Z4.000 F120
G1 Z-3.950 F120
;<Delay> 6000

;<Slice> 270
M106 S255
;<Delay> 6000
M106 S0
;<Slice> Blank
G1 Z4.000 F120
G1 Z-3.950 F120
;<Delay> 6000

;<Slice> 271
M106 S255
;<Delay> 6000
M106 S0
;<Slice> Blank
G1 Z4.000 F120
G1 Z-3.950 F120
;<Delay> 6000

;<Slice> 272
M106 S255
;<Delay> 6000
M106 S0
;<Slice> Blank
G1 Z4.000 F120
G1 Z-3.950 F120
;<Delay> 6000

;<Slice> 273
M106 S255
;<Delay> 6000
M106 S0
;<Slice> Blank
G1 Z4.000 F120
G1 Z-3.950 F120
;<Delay> 6000

;<Slice> 274
M106 S255
;<Delay> 6000
M106 S0
;<Slice> Blank
G1 Z4.000 F120
G1 Z-3.950 F120
;<Delay> 6000

;<Slice> 275
M106 S255
;<Delay> 6000
M106 S0
;<Slice> Blank
G1 Z4.000 F120
G1 Z-3.950 F120
;<Delay> 6000

;<Slice> 276
M106 S255
;<Delay> 6000
M106 S0
;<Slice> Blank
G1 Z4.000 F120
G1 Z-3.950 F120
;<Delay> 6000

;<Slice> 277
M106 S255
;<Delay> 6000
M106 S0
;<Slice> Blank
G1 Z4.000 F120
G1 Z-3.950 F120
;<Delay> 6000

;<Slice> 278
M106 S255
;<Delay> 6000
M106 S0
;<Slice> Blank
G1 Z4.000 F120
G1 Z-3.950 F120
;<Delay> 6000

;<Slice> 279
M106 S255
;<Delay> 6000
M106 S0
;<Slice> Blank
G1 Z4.000 F120
G1 Z-3.950 F120
;<Delay> 6000

;<Slice> 280
M106 S255
;<Delay> 6000
M106 S0
;<Slice> Blank
G1 Z4.000 F120
G1 Z-3.950 F120
;<Delay> 6000

;<Slice> 281
M106 S255
;<Delay> 6000
M106 S0
;<Slice> Blank
G1 Z4.000 F120
G1 Z-3.950 F120
;<Delay> 6000

;<Slice> 282
M106 S255
;<Delay> 6000
M106 S0
;<Slice> Blank
G1 Z4.000 F120
G1 Z-3.950 F120
;<Delay> 6000

;<Slice> 283
M106 S255
;<Delay> 6000
M106 S0
;<Slice> Blank
G1 Z4.000 F120
G1 Z-3.950 F120
;<Delay> 6000

;<Slice> 284
M106 S255
;<Delay> 6000
M106 S0
;<Slice> Blank
G1 Z4.000 F120
G1 Z-3.950 F120
;<Delay> 6000

;<Slice> 285
M106 S255
;<Delay> 6000
M106 S0
;<Slice> Blank
G1 Z4.000 F120
G1 Z-3.950 F120
;<Delay> 6000

;<Slice> 286
M106 S255
;<Delay> 6000
M106 S0
;<Slice> Blank
G1 Z4.000 F120
G1 Z-3.950 F120
;<Delay> 6000

;<Slice> 287
M106 S255
;<Delay> 6000
M106 S0
;<Slice> Blank
G1 Z4.000 F120
G1 Z-3.950 F120
;<Delay> 6000

;<Slice> 288
M106 S255
;<Delay> 6000
M106 S0
;<Slice> Blank
G1 Z4.000 F120
G1 Z-3.950 F120
;<Delay> 6000

;<Slice> 289
M106 S255
;<Delay> 6000
M106 S0
;<Slice> Blank
G1 Z4.000 F120
G1 Z-3.950 F120
;<Delay> 6000

;<Slice> 290
M106 S255
;<Delay> 6000
M106 S0
;<Slice> Blank
G1 Z4.000 F120
G1 Z-3.950 F120
;<Delay> 6000

;<Slice> 291
M106 S255
;<Delay> 6000
M106 S0
;<Slice> Blank
G1 Z4.000 F120
G1 Z-3.950 F120
;<Delay> 6000

;<Slice> 292
M106 S255
;<Delay> 6000
M106 S0
;<Slice> Blank
G1 Z4.000 F120
G1 Z-3.950 F120
;<Delay> 6000

;<Slice> 293
M106 S255
;<Delay> 6000
M106 S0
;<Slice> Blank
G1 Z4.000 F120
G1 Z-3.950 F120
;<Delay> 6000

;<Slice> 294
M106 S255
;<Delay> 6000
M106 S0
;<Slice> Blank
G1 Z4.000 F120
G1 Z-3.950 F120
;<Delay> 6000

;<Slice> 295
M106 S255
;<Delay> 6000
M106 S0
;<Slice> Blank
G1 Z4.000 F120
G1 Z-3.950 F120
;<Delay> 6000

;<Slice> 296
M106 S255
;<Delay> 6000
M106 S0
;<Slice> Blank
G1 Z4.000 F120
G1 Z-3.950 F120
;<Delay> 6000

;<Slice> 297
M106 S255
;<Delay> 6000
M106 S0
;<Slice> Blank
G1 Z4.000 F120
G1 Z-3.950 F120
;<Delay> 6000

;<Slice> 298
M106 S255
;<Delay> 6000
M106 S0
;<Slice> Blank
G1 Z4.000 F120
G1 Z-3.950 F120
;<Delay> 6000

;<Slice> 299
M106 S255
;<Delay> 6000
M106 S0
;<Slice> Blank
G1 Z4.000 F120
G1 Z-3.950 F120
;<Delay> 6000

;<Slice> 300
M106 S255
;<Delay> 6000
M106 S0
;<Slice> Blank
G1 Z4.000 F120
G1 Z-3.950 F120
;<Delay> 6000

;<Slice> 301
M106 S255
;<Delay> 6000
M106 S0
;<Slice> Blank
G1 Z4.000 F120
G1 Z-3.950 F120
;<Delay> 6000

;<Slice> 302
M106 S255
;<Delay> 6000
M106 S0
;<Slice> Blank
G1 Z4.000 F120
G1 Z-3.950 F120
;<Delay> 6000

;<Slice> 303
M106 S255
;<Delay> 6000
M106 S0
;<Slice> Blank
G1 Z4.000 F120
G1 Z-3.950 F120
;<Delay> 6000

;<Slice> 304
M106 S255
;<Delay> 6000
M106 S0
;<Slice> Blank
G1 Z4.000 F120
G1 Z-3.950 F120
;<Delay> 6000

;<Slice> 305
M106 S255
;<Delay> 6000
M106 S0
;<Slice> Blank
G1 Z4.000 F120
G1 Z-3.950 F120
;<Delay> 6000

;<Slice> 306
M106 S255
;<Delay> 6000
M106 S0
;<Slice> Blank
G1 Z4.000 F120
G1 Z-3.950 F120
;<Delay> 6000

;<Slice> 307
M106 S255
;<Delay> 6000
M106 S0
;<Slice> Blank
G1 Z4.000 F120
G1 Z-3.950 F120
;<Delay> 6000

;<Slice> 308
M106 S255
;<Delay> 6000
M106 S0
;<Slice> Blank
G1 Z4.000 F120
G1 Z-3.950 F120
;<Delay> 6000

;<Slice> 309
M106 S255
;<Delay> 6000
M106 S0
;<Slice> Blank
G1 Z4.000 F120
G1 Z-3.950 F120
;<Delay> 6000

;<Slice> 310
M106 S255
;<Delay> 6000
M106 S0
;<Slice> Blank
G1 Z4.000 F120
G1 Z-3.950 F120
;<Delay> 6000

;<Slice> 311
M106 S255
;<Delay> 6000
M106 S0
;<Slice> Blank
G1 Z4.000 F120
G1 Z-3.950 F120
;<Delay> 6000

;<Slice> 312
M106 S255
;<Delay> 6000
M106 S0
;<Slice> Blank
G1 Z4.000 F120
G1 Z-3.950 F120
;<Delay> 6000

;<Slice> 313
M106 S255
;<Delay> 6000
M106 S0
;<Slice> Blank
G1 Z4.000 F120
G1 Z-3.950 F120
;<Delay> 6000

;<Slice> 314
M106 S255
;<Delay> 6000
M106 S0
;<Slice> Blank
G1 Z4.000 F120
G1 Z-3.950 F120
;<Delay> 6000

;<Slice> 315
M106 S255
;<Delay> 6000
M106 S0
;<Slice> Blank
G1 Z4.000 F120
G1 Z-3.950 F120
;<Delay> 6000

;<Slice> 316
M106 S255
;<Delay> 6000
M106 S0
;<Slice> Blank
G1 Z4.000 F120
G1 Z-3.950 F120
;<Delay> 6000

;<Slice> 317
M106 S255
;<Delay> 6000
M106 S0
;<Slice> Blank
G1 Z4.000 F120
G1 Z-3.950 F120
;<Delay> 6000

;<Slice> 318
M106 S255
;<Delay> 6000
M106 S0
;<Slice> Blank
G1 Z4.000 F120
G1 Z-3.950 F120
;<Delay> 6000

;<Slice> 319
M106 S255
;<Delay> 6000
M106 S0
;<Slice> Blank
G1 Z4.000 F120
G1 Z-3.950 F120
;<Delay> 6000

;<Slice> 320
M106 S255
;<Delay> 6000
M106 S0
;<Slice> Blank
G1 Z4.000 F120
G1 Z-3.950 F120
;<Delay> 6000

;<Slice> 321
M106 S255
;<Delay> 6000
M106 S0
;<Slice> Blank
G1 Z4.000 F120
G1 Z-3.950 F120
;<Delay> 6000

;<Slice> 322
M106 S255
;<Delay> 6000
M106 S0
;<Slice> Blank
G1 Z4.000 F120
G1 Z-3.950 F120
;<Delay> 6000

;<Slice> 323
M106 S255
;<Delay> 6000
M106 S0
;<Slice> Blank
G1 Z4.000 F120
G1 Z-3.950 F120
;<Delay> 6000

;<Slice> 324
M106 S255
;<Delay> 6000
M106 S0
;<Slice> Blank
G1 Z4.000 F120
G1 Z-3.950 F120
;<Delay> 6000

;<Slice> 325
M106 S255
;<Delay> 6000
M106 S0
;<Slice> Blank
G1 Z4.000 F120
G1 Z-3.950 F120
;<Delay> 6000

;<Slice> 326
M106 S255
;<Delay> 6000
M106 S0
;<Slice> Blank
G1 Z4.000 F120
G1 Z-3.950 F120
;<Delay> 6000

;<Slice> 327
M106 S255
;<Delay> 6000
M106 S0
;<Slice> Blank
G1 Z4.000 F120
G1 Z-3.950 F120
;<Delay> 6000

;<Slice> 328
M106 S255
;<Delay> 6000
M106 S0
;<Slice> Blank
G1 Z4.000 F120
G1 Z-3.950 F120
;<Delay> 6000

;<Slice> 329
M106 S255
;<Delay> 6000
M106 S0
;<Slice> Blank
G1 Z4.000 F120
G1 Z-3.950 F120
;<Delay> 6000

;<Slice> 330
M106 S255
;<Delay> 6000
M106 S0
;<Slice> Blank
G1 Z4.000 F120
G1 Z-3.950 F120
;<Delay> 6000

;<Slice> 331
M106 S255
;<Delay> 6000
M106 S0
;<Slice> Blank
G1 Z4.000 F120
G1 Z-3.950 F120
;<Delay> 6000

;<Slice> 332
M106 S255
;<Delay> 6000
M106 S0
;<Slice> Blank
G1 Z4.000 F120
G1 Z-3.950 F120
;<Delay> 6000

;<Slice> 333
M106 S255
;<Delay> 6000
M106 S0
;<Slice> Blank
G1 Z4.000 F120
G1 Z-3.950 F120
;<Delay> 6000

;<Slice> 334
M106 S255
;<Delay> 6000
M106 S0
;<Slice> Blank
G1 Z4.000 F120
G1 Z-3.950 F120
;<Delay> 6000

;<Slice> 335
M106 S255
;<Delay> 6000
M106 S0
;<Slice> Blank
G1 Z4.000 F120
G1 Z-3.950 F120
;<Delay> 6000

;<Slice> 336
M106 S255
;<Delay> 6000
M106 S0
;<Slice> Blank
G1 Z4.000 F120
G1 Z-3.950 F120
;<Delay> 6000

;<Slice> 337
M106 S255
;<Delay> 6000
M106 S0
;<Slice> Blank
G1 Z4.000 F120
G1 Z-3.950 F120
;<Delay> 6000

;<Slice> 338
M106 S255
;<Delay> 6000
M106 S0
;<Slice> Blank
G1 Z4.000 F120
G1 Z-3.950 F120
;<Delay> 6000

;<Slice> 339
M106 S255
;<Delay> 6000
M106 S0
;<Slice> Blank
G1 Z4.000 F120
G1 Z-3.950 F120
;<Delay> 6000

;<Slice> 340
M106 S255
;<Delay> 6000
M106 S0
;<Slice> Blank
G1 Z4.000 F120
G1 Z-3.950 F120
;<Delay> 6000

;<Slice> 341
M106 S255
;<Delay> 6000
M106 S0
;<Slice> Blank
G1 Z4.000 F120
G1 Z-3.950 F120
;<Delay> 6000

;<Slice> 342
M106 S255
;<Delay> 6000
M106 S0
;<Slice> Blank
G1 Z4.000 F120
G1 Z-3.950 F120
;<Delay> 6000

;<Slice> 343
M106 S255
;<Delay> 6000
M106 S0
;<Slice> Blank
G1 Z4.000 F120
G1 Z-3.950 F120
;<Delay> 6000

;<Slice> 344
M106 S255
;<Delay> 6000
M106 S0
;<Slice> Blank
G1 Z4.000 F120
G1 Z-3.950 F120
;<Delay> 6000

;<Slice> 345
M106 S255
;<Delay> 6000
M106 S0
;<Slice> Blank
G1 Z4.000 F120
G1 Z-3.950 F120
;<Delay> 6000

;<Slice> 346
M106 S255
;<Delay> 6000
M106 S0
;<Slice> Blank
G1 Z4.000 F120
G1 Z-3.950 F120
;<Delay> 6000

;<Slice> 347
M106 S255
;<Delay> 6000
M106 S0
;<Slice> Blank
G1 Z4.000 F120
G1 Z-3.950 F120
;<Delay> 6000

;<Slice> 348
M106 S255
;<Delay> 6000
M106 S0
;<Slice> Blank
G1 Z4.000 F120
G1 Z-3.950 F120
;<Delay> 6000

;<Slice> 349
M106 S255
;<Delay> 6000
M106 S0
;<Slice> Blank
G1 Z4.000 F120
G1 Z-3.950 F120
;<Delay> 6000

;<Slice> 350
M106 S255
;<Delay> 6000
M106 S0
;<Slice> Blank
G1 Z4.000 F120
G1 Z-3.950 F120
;<Delay> 6000

;<Slice> 351
M106 S255
;<Delay> 6000
M106 S0
;<Slice> Blank
G1 Z4.000 F120
G1 Z-3.950 F120
;<Delay> 6000

;<Slice> 352
M106 S255
;<Delay> 6000
M106 S0
;<Slice> Blank
G1 Z4.000 F120
G1 Z-3.950 F120
;<Delay> 6000

;<Slice> 353
M106 S255
;<Delay> 6000
M106 S0
;<Slice> Blank
G1 Z4.000 F120
G1 Z-3.950 F120
;<Delay> 6000

;<Slice> 354
M106 S255
;<Delay> 6000
M106 S0
;<Slice> Blank
G1 Z4.000 F120
G1 Z-3.950 F120
;<Delay> 6000

;<Slice> 355
M106 S255
;<Delay> 6000
M106 S0
;<Slice> Blank
G1 Z4.000 F120
G1 Z-3.950 F120
;<Delay> 6000

;<Slice> 356
M106 S255
;<Delay> 6000
M106 S0
;<Slice> Blank
G1 Z4.000 F120
G1 Z-3.950 F120
;<Delay> 6000

;<Slice> 357
M106 S255
;<Delay> 6000
M106 S0
;<Slice> Blank
G1 Z4.000 F120
G1 Z-3.950 F120
;<Delay> 6000

;<Slice> 358
M106 S255
;<Delay> 6000
M106 S0
;<Slice> Blank
G1 Z4.000 F120
G1 Z-3.950 F120
;<Delay> 6000

;<Slice> 359
M106 S255
;<Delay> 6000
M106 S0
;<Slice> Blank
G1 Z4.000 F120
G1 Z-3.950 F120
;<Delay> 6000

;<Slice> 360
M106 S255
;<Delay> 6000
M106 S0
;<Slice> Blank
G1 Z4.000 F120
G1 Z-3.950 F120
;<Delay> 6000

;<Slice> 361
M106 S255
;<Delay> 6000
M106 S0
;<Slice> Blank
G1 Z4.000 F120
G1 Z-3.950 F120
;<Delay> 6000

;<Slice> 362
M106 S255
;<Delay> 6000
M106 S0
;<Slice> Blank
G1 Z4.000 F120
G1 Z-3.950 F120
;<Delay> 6000

;<Slice> 363
M106 S255
;<Delay> 6000
M106 S0
;<Slice> Blank
G1 Z4.000 F120
G1 Z-3.950 F120
;<Delay> 6000

;<Slice> 364
M106 S255
;<Delay> 6000
M106 S0
;<Slice> Blank
G1 Z4.000 F120
G1 Z-3.950 F120
;<Delay> 6000

;<Slice> 365
M106 S255
;<Delay> 6000
M106 S0
;<Slice> Blank
G1 Z4.000 F120
G1 Z-3.950 F120
;<Delay> 6000

;<Slice> 366
M106 S255
;<Delay> 6000
M106 S0
;<Slice> Blank
G1 Z4.000 F120
G1 Z-3.950 F120
;<Delay> 6000

;<Slice> 367
M106 S255
;<Delay> 6000
M106 S0
;<Slice> Blank
G1 Z4.000 F120
G1 Z-3.950 F120
;<Delay> 6000

;<Slice> 368
M106 S255
;<Delay> 6000
M106 S0
;<Slice> Blank
G1 Z4.000 F120
G1 Z-3.950 F120
;<Delay> 6000

;<Slice> 369
M106 S255
;<Delay> 6000
M106 S0
;<Slice> Blank
G1 Z4.000 F120
G1 Z-3.950 F120
;<Delay> 6000

;<Slice> 370
M106 S255
;<Delay> 6000
M106 S0
;<Slice> Blank
G1 Z4.000 F120
G1 Z-3.950 F120
;<Delay> 6000

;<Slice> 371
M106 S255
;<Delay> 6000
M106 S0
;<Slice> Blank
G1 Z4.000 F120
G1 Z-3.950 F120
;<Delay> 6000

;<Slice> 372
M106 S255
;<Delay> 6000
M106 S0
;<Slice> Blank
G1 Z4.000 F120
G1 Z-3.950 F120
;<Delay> 6000

;<Slice> 373
M106 S255
;<Delay> 6000
M106 S0
;<Slice> Blank
G1 Z4.000 F120
G1 Z-3.950 F120
;<Delay> 6000

;<Slice> 374
M106 S255
;<Delay> 6000
M106 S0
;<Slice> Blank
G1 Z4.000 F120
G1 Z-3.950 F120
;<Delay> 6000

;<Slice> 375
M106 S255
;<Delay> 6000
M106 S0
;<Slice> Blank
G1 Z4.000 F120
G1 Z-3.950 F120
;<Delay> 6000

;<Slice> 376
M106 S255
;<Delay> 6000
M106 S0
;<Slice> Blank
G1 Z4.000 F120
G1 Z-3.950 F120
;<Delay> 6000

;<Slice> 377
M106 S255
;<Delay> 6000
M106 S0
;<Slice> Blank
G1 Z4.000 F120
G1 Z-3.950 F120
;<Delay> 6000

;<Slice> 378
M106 S255
;<Delay> 6000
M106 S0
;<Slice> Blank
G1 Z4.000 F120
G1 Z-3.950 F120
;<Delay> 6000

;<Slice> 379
M106 S255
;<Delay> 6000
M106 S0
;<Slice> Blank
G1 Z4.000 F120
G1 Z-3.950 F120
;<Delay> 6000

;<Slice> 380
M106 S255
;<Delay> 6000
M106 S0
;<Slice> Blank
G1 Z4.000 F120
G1 Z-3.950 F120
;<Delay> 6000

;<Slice> 381
M106 S255
;<Delay> 6000
M106 S0
;<Slice> Blank
G1 Z4.000 F120
G1 Z-3.950 F120
;<Delay> 6000

;<Slice> 382
M106 S255
;<Delay> 6000
M106 S0
;<Slice> Blank
G1 Z4.000 F120
G1 Z-3.950 F120
;<Delay> 6000

;<Slice> 383
M106 S255
;<Delay> 6000
M106 S0
;<Slice> Blank
G1 Z4.000 F120
G1 Z-3.950 F120
;<Delay> 6000

;<Slice> 384
M106 S255
;<Delay> 6000
M106 S0
;<Slice> Blank
G1 Z4.000 F120
G1 Z-3.950 F120
;<Delay> 6000

;<Slice> 385
M106 S255
;<Delay> 6000
M106 S0
;<Slice> Blank
G1 Z4.000 F120
G1 Z-3.950 F120
;<Delay> 6000

;<Slice> 386
M106 S255
;<Delay> 6000
M106 S0
;<Slice> Blank
G1 Z4.000 F120
G1 Z-3.950 F120
;<Delay> 6000

;<Slice> 387
M106 S255
;<Delay> 6000
M106 S0
;<Slice> Blank
G1 Z4.000 F120
G1 Z-3.950 F120
;<Delay> 6000

;<Slice> 388
M106 S255
;<Delay> 6000
M106 S0
;<Slice> Blank
G1 Z4.000 F120
G1 Z-3.950 F120
;<Delay> 6000

;<Slice> 389
M106 S255
;<Delay> 6000
M106 S0
;<Slice> Blank
G1 Z4.000 F120
G1 Z-3.950 F120
;<Delay> 6000

;<Slice> 390
M106 S255
;<Delay> 6000
M106 S0
;<Slice> Blank
G1 Z4.000 F120
G1 Z-3.950 F120
;<Delay> 6000

;<Slice> 391
M106 S255
;<Delay> 6000
M106 S0
;<Slice> Blank
G1 Z4.000 F120
G1 Z-3.950 F120
;<Delay> 6000

;<Slice> 392
M106 S255
;<Delay> 6000
M106 S0
;<Slice> Blank
G1 Z4.000 F120
G1 Z-3.950 F120
;<Delay> 6000

;<Slice> 393
M106 S255
;<Delay> 6000
M106 S0
;<Slice> Blank
G1 Z4.000 F120
G1 Z-3.950 F120
;<Delay> 6000

;<Slice> 394
M106 S255
;<Delay> 6000
M106 S0
;<Slice> Blank
G1 Z4.000 F120
G1 Z-3.950 F120
;<Delay> 6000

;<Slice> 395
M106 S255
;<Delay> 6000
M106 S0
;<Slice> Blank
G1 Z4.000 F120
G1 Z-3.950 F120
;<Delay> 6000

;<Slice> 396
M106 S255
;<Delay> 6000
M106 S0
;<Slice> Blank
G1 Z4.000 F120
G1 Z-3.950 F120
;<Delay> 6000

;<Slice> 397
M106 S255
;<Delay> 6000
M106 S0
;<Slice> Blank
G1 Z4.000 F120
G1 Z-3.950 F120
;<Delay> 6000

;<Slice> 398
M106 S255
;<Delay> 6000
M106 S0
;<Slice> Blank
G1 Z4.000 F120
G1 Z-3.950 F120
;<Delay> 6000

;<Slice> 399
M106 S255
;<Delay> 6000
M106 S0
;<Slice> Blank
G1 Z4.000 F120
G1 Z-3.950 F120
;<Delay> 6000

;<Slice> 400
M106 S255
;<Delay> 6000
M106 S0
;<Slice> Blank
G1 Z4.000 F120
G1 Z-3.950 F120
;<Delay> 6000

;<Slice> 401
M106 S255
;<Delay> 6000
M106 S0
;<Slice> Blank
G1 Z4.000 F120
G1 Z-3.950 F120
;<Delay> 6000

;<Slice> 402
M106 S255
;<Delay> 6000
M106 S0
;<Slice> Blank
G1 Z4.000 F120
G1 Z-3.950 F120
;<Delay> 6000

;<Slice> 403
M106 S255
;<Delay> 6000
M106 S0
;<Slice> Blank
G1 Z4.000 F120
G1 Z-3.950 F120
;<Delay> 6000

;<Slice> 404
M106 S255
;<Delay> 6000
M106 S0
;<Slice> Blank
G1 Z4.000 F120
G1 Z-3.950 F120
;<Delay> 6000

;<Slice> 405
M106 S255
;<Delay> 6000
M106 S0
;<Slice> Blank
G1 Z4.000 F120
G1 Z-3.950 F120
;<Delay> 6000

;<Slice> 406
M106 S255
;<Delay> 6000
M106 S0
;<Slice> Blank
G1 Z4.000 F120
G1 Z-3.950 F120
;<Delay> 6000

;<Slice> 407
M106 S255
;<Delay> 6000
M106 S0
;<Slice> Blank
G1 Z4.000 F120
G1 Z-3.950 F120
;<Delay> 6000

;<Slice> 408
M106 S255
;<Delay> 6000
M106 S0
;<Slice> Blank
G1 Z4.000 F120
G1 Z-3.950 F120
;<Delay> 6000

;<Slice> 409
M106 S255
;<Delay> 6000
M106 S0
;<Slice> Blank
G1 Z4.000 F120
G1 Z-3.950 F120
;<Delay> 6000

;<Slice> 410
M106 S255
;<Delay> 6000
M106 S0
;<Slice> Blank
G1 Z4.000 F120
G1 Z-3.950 F120
;<Delay> 6000

;<Slice> 411
M106 S255
;<Delay> 6000
M106 S0
;<Slice> Blank
G1 Z4.000 F120
G1 Z-3.950 F120
;<Delay> 6000

;<Slice> 412
M106 S255
;<Delay> 6000
M106 S0
;<Slice> Blank
G1 Z4.000 F120
G1 Z-3.950 F120
;<Delay> 6000

;<Slice> 413
M106 S255
;<Delay> 6000
M106 S0
;<Slice> Blank
G1 Z4.000 F120
G1 Z-3.950 F120
;<Delay> 6000

;<Slice> 414
M106 S255
;<Delay> 6000
M106 S0
;<Slice> Blank
G1 Z4.000 F120
G1 Z-3.950 F120
;<Delay> 6000

;<Slice> 415
M106 S255
;<Delay> 6000
M106 S0
;<Slice> Blank
G1 Z4.000 F120
G1 Z-3.950 F120
;<Delay> 6000

;<Slice> 416
M106 S255
;<Delay> 6000
M106 S0
;<Slice> Blank
G1 Z4.000 F120
G1 Z-3.950 F120
;<Delay> 6000

;<Slice> 417
M106 S255
;<Delay> 6000
M106 S0
;<Slice> Blank
G1 Z4.000 F120
G1 Z-3.950 F120
;<Delay> 6000

;<Slice> 418
M106 S255
;<Delay> 6000
M106 S0
;<Slice> Blank
G1 Z4.000 F120
G1 Z-3.950 F120
;<Delay> 6000

;<Slice> 419
M106 S255
;<Delay> 6000
M106 S0
;<Slice> Blank
G1 Z4.000 F120
G1 Z-3.950 F120
;<Delay> 6000

;<Slice> 420
M106 S255
;<Delay> 6000
M106 S0
;<Slice> Blank
G1 Z4.000 F120
G1 Z-3.950 F120
;<Delay> 6000

;<Slice> 421
M106 S255
;<Delay> 6000
M106 S0
;<Slice> Blank
G1 Z4.000 F120
G1 Z-3.950 F120
;<Delay> 6000

;<Slice> 422
M106 S255
;<Delay> 6000
M106 S0
;<Slice> Blank
G1 Z4.000 F120
G1 Z-3.950 F120
;<Delay> 6000

;<Slice> 423
M106 S255
;<Delay> 6000
M106 S0
;<Slice> Blank
G1 Z4.000 F120
G1 Z-3.950 F120
;<Delay> 6000

;<Slice> 424
M106 S255
;<Delay> 6000
M106 S0
;<Slice> Blank
G1 Z4.000 F120
G1 Z-3.950 F120
;<Delay> 6000

;<Slice> 425
M106 S255
;<Delay> 6000
M106 S0
;<Slice> Blank
G1 Z4.000 F120
G1 Z-3.950 F120
;<Delay> 6000

;<Slice> 426
M106 S255
;<Delay> 6000
M106 S0
;<Slice> Blank
G1 Z4.000 F120
G1 Z-3.950 F120
;<Delay> 6000

;<Slice> 427
M106 S255
;<Delay> 6000
M106 S0
;<Slice> Blank
G1 Z4.000 F120
G1 Z-3.950 F120
;<Delay> 6000

;<Slice> 428
M106 S255
;<Delay> 6000
M106 S0
;<Slice> Blank
G1 Z4.000 F120
G1 Z-3.950 F120
;<Delay> 6000

;<Slice> 429
M106 S255
;<Delay> 6000
M106 S0
;<Slice> Blank
G1 Z4.000 F120
G1 Z-3.950 F120
;<Delay> 6000

;<Slice> 430
M106 S255
;<Delay> 6000
M106 S0
;<Slice> Blank
G1 Z4.000 F120
G1 Z-3.950 F120
;<Delay> 6000

;<Slice> 431
M106 S255
;<Delay> 6000
M106 S0
;<Slice> Blank
G1 Z4.000 F120
G1 Z-3.950 F120
;<Delay> 6000

;<Slice> 432
M106 S255
;<Delay> 6000
M106 S0
;<Slice> Blank
G1 Z4.000 F120
G1 Z-3.950 F120
;<Delay> 6000

;<Slice> 433
M106 S255
;<Delay> 6000
M106 S0
;<Slice> Blank
G1 Z4.000 F120
G1 Z-3.950 F120
;<Delay> 6000

;<Slice> 434
M106 S255
;<Delay> 6000
M106 S0
;<Slice> Blank
G1 Z4.000 F120
G1 Z-3.950 F120
;<Delay> 6000

;<Slice> 435
M106 S255
;<Delay> 6000
M106 S0
;<Slice> Blank
G1 Z4.000 F120
G1 Z-3.950 F120
;<Delay> 6000

;<Slice> 436
M106 S255
;<Delay> 6000
M106 S0
;<Slice> Blank
G1 Z4.000 F120
G1 Z-3.950 F120
;<Delay> 6000

;<Slice> 437
M106 S255
;<Delay> 6000
M106 S0
;<Slice> Blank
G1 Z4.000 F120
G1 Z-3.950 F120
;<Delay> 6000

;<Slice> 438
M106 S255
;<Delay> 6000
M106 S0
;<Slice> Blank
G1 Z4.000 F120
G1 Z-3.950 F120
;<Delay> 6000

;<Slice> 439
M106 S255
;<Delay> 6000
M106 S0
;<Slice> Blank
G1 Z4.000 F120
G1 Z-3.950 F120
;<Delay> 6000

;<Slice> 440
M106 S255
;<Delay> 6000
M106 S0
;<Slice> Blank
G1 Z4.000 F120
G1 Z-3.950 F120
;<Delay> 6000

;<Slice> 441
M106 S255
;<Delay> 6000
M106 S0
;<Slice> Blank
G1 Z4.000 F120
G1 Z-3.950 F120
;<Delay> 6000

;<Slice> 442
M106 S255
;<Delay> 6000
M106 S0
;<Slice> Blank
G1 Z4.000 F120
G1 Z-3.950 F120
;<Delay> 6000

;<Slice> 443
M106 S255
;<Delay> 6000
M106 S0
;<Slice> Blank
G1 Z4.000 F120
G1 Z-3.950 F120
;<Delay> 6000

;<Slice> 444
M106 S255
;<Delay> 6000
M106 S0
;<Slice> Blank
G1 Z4.000 F120
G1 Z-3.950 F120
;<Delay> 6000

;<Slice> 445
M106 S255
;<Delay> 6000
M106 S0
;<Slice> Blank
G1 Z4.000 F120
G1 Z-3.950 F120
;<Delay> 6000

;<Slice> 446
M106 S255
;<Delay> 6000
M106 S0
;<Slice> Blank
G1 Z4.000 F120
G1 Z-3.950 F120
;<Delay> 6000

;<Slice> 447
M106 S255
;<Delay> 6000
M106 S0
;<Slice> Blank
G1 Z4.000 F120
G1 Z-3.950 F120
;<Delay> 6000

;<Slice> 448
M106 S255
;<Delay> 6000
M106 S0
;<Slice> Blank
G1 Z4.000 F120
G1 Z-3.950 F120
;<Delay> 6000

;<Slice> 449
M106 S255
;<Delay> 6000
M106 S0
;<Slice> Blank
G1 Z4.000 F120
G1 Z-3.950 F120
;<Delay> 6000

;<Slice> 450
M106 S255
;<Delay> 6000
M106 S0
;<Slice> Blank
G1 Z4.000 F120
G1 Z-3.950 F120
;<Delay> 6000

;<Slice> 451
M106 S255
;<Delay> 6000
M106 S0
;<Slice> Blank
G1 Z4.000 F120
G1 Z-3.950 F120
;<Delay> 6000

;<Slice> 452
M106 S255
;<Delay> 6000
M106 S0
;<Slice> Blank
G1 Z4.000 F120
G1 Z-3.950 F120
;<Delay> 6000

;<Slice> 453
M106 S255
;<Delay> 6000
M106 S0
;<Slice> Blank
G1 Z4.000 F120
G1 Z-3.950 F120
;<Delay> 6000

;<Slice> 454
M106 S255
;<Delay> 6000
M106 S0
;<Slice> Blank
G1 Z4.000 F120
G1 Z-3.950 F120
;<Delay> 6000

;<Slice> 455
M106 S255
;<Delay> 6000
M106 S0
;<Slice> Blank
G1 Z4.000 F120
G1 Z-3.950 F120
;<Delay> 6000

;<Slice> 456
M106 S255
;<Delay> 6000
M106 S0
;<Slice> Blank
G1 Z4.000 F120
G1 Z-3.950 F120
;<Delay> 6000

;<Slice> 457
M106 S255
;<Delay> 6000
M106 S0
;<Slice> Blank
G1 Z4.000 F120
G1 Z-3.950 F120
;<Delay> 6000

;<Slice> 458
M106 S255
;<Delay> 6000
M106 S0
;<Slice> Blank
G1 Z4.000 F120
G1 Z-3.950 F120
;<Delay> 6000

;<Slice> 459
M106 S255
;<Delay> 6000
M106 S0
;<Slice> Blank
G1 Z4.000 F120
G1 Z-3.950 F120
;<Delay> 6000

;<Slice> 460
M106 S255
;<Delay> 6000
M106 S0
;<Slice> Blank
G1 Z4.000 F120
G1 Z-3.950 F120
;<Delay> 6000

;<Slice> 461
M106 S255
;<Delay> 6000
M106 S0
;<Slice> Blank
G1 Z4.000 F120
G1 Z-3.950 F120
;<Delay> 6000

;<Slice> 462
M106 S255
;<Delay> 6000
M106 S0
;<Slice> Blank
G1 Z4.000 F120
G1 Z-3.950 F120
;<Delay> 6000

;<Slice> 463
M106 S255
;<Delay> 6000
M106 S0
;<Slice> Blank
G1 Z4.000 F120
G1 Z-3.950 F120
;<Delay> 6000

;<Slice> 464
M106 S255
;<Delay> 6000
M106 S0
;<Slice> Blank
G1 Z4.000 F120
G1 Z-3.950 F120
;<Delay> 6000

;<Slice> 465
M106 S255
;<Delay> 6000
M106 S0
;<Slice> Blank
G1 Z4.000 F120
G1 Z-3.950 F120
;<Delay> 6000

;<Slice> 466
M106 S255
;<Delay> 6000
M106 S0
;<Slice> Blank
G1 Z4.000 F120
G1 Z-3.950 F120
;<Delay> 6000

;<Slice> 467
M106 S255
;<Delay> 6000
M106 S0
;<Slice> Blank
G1 Z4.000 F120
G1 Z-3.950 F120
;<Delay> 6000

;<Slice> 468
M106 S255
;<Delay> 6000
M106 S0
;<Slice> Blank
G1 Z4.000 F120
G1 Z-3.950 F120
;<Delay> 6000

;<Slice> 469
M106 S255
;<Delay> 6000
M106 S0
;<Slice> Blank
G1 Z4.000 F120
G1 Z-3.950 F120
;<Delay> 6000

;<Slice> 470
M106 S255
;<Delay> 6000
M106 S0
;<Slice> Blank
G1 Z4.000 F120
G1 Z-3.950 F120
;<Delay> 6000

;<Slice> 471
M106 S255
;<Delay> 6000
M106 S0
;<Slice> Blank
G1 Z4.000 F120
G1 Z-3.950 F120
;<Delay> 6000

;<Slice> 472
M106 S255
;<Delay> 6000
M106 S0
;<Slice> Blank
G1 Z4.000 F120
G1 Z-3.950 F120
;<Delay> 6000

;<Slice> 473
M106 S255
;<Delay> 6000
M106 S0
;<Slice> Blank
G1 Z4.000 F120
G1 Z-3.950 F120
;<Delay> 6000

;<Slice> 474
M106 S255
;<Delay> 6000
M106 S0
;<Slice> Blank
G1 Z4.000 F120
G1 Z-3.950 F120
;<Delay> 6000

;<Slice> 475
M106 S255
;<Delay> 6000
M106 S0
;<Slice> Blank
G1 Z4.000 F120
G1 Z-3.950 F120
;<Delay> 6000

;<Slice> 476
M106 S255
;<Delay> 6000
M106 S0
;<Slice> Blank
G1 Z4.000 F120
G1 Z-3.950 F120
;<Delay> 6000

;<Slice> 477
M106 S255
;<Delay> 6000
M106 S0
;<Slice> Blank
G1 Z4.000 F120
G1 Z-3.950 F120
;<Delay> 6000

;<Slice> 478
M106 S255
;<Delay> 6000
M106 S0
;<Slice> Blank
G1 Z4.000 F120
G1 Z-3.950 F120
;<Delay> 6000

;<Slice> 479
M106 S255
;<Delay> 6000
M106 S0
;<Slice> Blank
G1 Z4.000 F120
G1 Z-3.950 F120
;<Delay> 6000

;<Slice> 480
M106 S255
;<Delay> 6000
M106 S0
;<Slice> Blank
G1 Z4.000 F120
G1 Z-3.950 F120
;<Delay> 6000

;<Slice> 481
M106 S255
;<Delay> 6000
M106 S0
;<Slice> Blank
G1 Z4.000 F120
G1 Z-3.950 F120
;<Delay> 6000

;<Slice> 482
M106 S255
;<Delay> 6000
M106 S0
;<Slice> Blank
G1 Z4.000 F120
G1 Z-3.950 F120
;<Delay> 6000

;<Slice> 483
M106 S255
;<Delay> 6000
M106 S0
;<Slice> Blank
G1 Z4.000 F120
G1 Z-3.950 F120
;<Delay> 6000

;<Slice> 484
M106 S255
;<Delay> 6000
M106 S0
;<Slice> Blank
G1 Z4.000 F120
G1 Z-3.950 F120
;<Delay> 6000

;<Slice> 485
M106 S255
;<Delay> 6000
M106 S0
;<Slice> Blank
G1 Z4.000 F120
G1 Z-3.950 F120
;<Delay> 6000

;<Slice> 486
M106 S255
;<Delay> 6000
M106 S0
;<Slice> Blank
G1 Z4.000 F120
G1 Z-3.950 F120
;<Delay> 6000

;<Slice> 487
M106 S255
;<Delay> 6000
M106 S0
;<Slice> Blank
G1 Z4.000 F120
G1 Z-3.950 F120
;<Delay> 6000

;<Slice> 488
M106 S255
;<Delay> 6000
M106 S0
;<Slice> Blank
G1 Z4.000 F120
G1 Z-3.950 F120
;<Delay> 6000

;<Slice> 489
M106 S255
;<Delay> 6000
M106 S0
;<Slice> Blank
G1 Z4.000 F120
G1 Z-3.950 F120
;<Delay> 6000

;<Slice> 490
M106 S255
;<Delay> 6000
M106 S0
;<Slice> Blank
G1 Z4.000 F120
G1 Z-3.950 F120
;<Delay> 6000

;<Slice> 491
M106 S255
;<Delay> 6000
M106 S0
;<Slice> Blank
G1 Z4.000 F120
G1 Z-3.950 F120
;<Delay> 6000

;<Slice> 492
M106 S255
;<Delay> 6000
M106 S0
;<Slice> Blank
G1 Z4.000 F120
G1 Z-3.950 F120
;<Delay> 6000

;<Slice> 493
M106 S255
;<Delay> 6000
M106 S0
;<Slice> Blank
G1 Z4.000 F120
G1 Z-3.950 F120
;<Delay> 6000

;<Slice> 494
M106 S255
;<Delay> 6000
M106 S0
;<Slice> Blank
G1 Z4.000 F120
G1 Z-3.950 F120
;<Delay> 6000

;<Slice> 495
M106 S255
;<Delay> 6000
M106 S0
;<Slice> Blank
G1 Z4.000 F120
G1 Z-3.950 F120
;<Delay> 6000

;<Slice> 496
M106 S255
;<Delay> 6000
M106 S0
;<Slice> Blank
G1 Z4.000 F120
G1 Z-3.950 F120
;<Delay> 6000

;<Slice> 497
M106 S255
;<Delay> 6000
M106 S0
;<Slice> Blank
G1 Z4.000 F120
G1 Z-3.950 F120
;<Delay> 6000

;<Slice> 498
M106 S255
;<Delay> 6000
M106 S0
;<Slice> Blank
G1 Z4.000 F120
G1 Z-3.950 F120
;<Delay> 6000

;<Slice> 499
M106 S255
;<Delay> 6000
M106 S0
;<Slice> Blank
G1 Z4.000 F120
G1 Z-3.950 F120
;<Delay> 6000

;<Slice> 500
M106 S255
;<Delay> 6000
M106 S0
;<Slice> Blank
G1 Z4.000 F120
G1 Z-3.950 F120
;<Delay> 6000

;<Slice> 501
M106 S255
;<Delay> 6000
M106 S0
;<Slice> Blank
G1 Z4.000 F120
G1 Z-3.950 F120
;<Delay> 6000

;<Slice> 502
M106 S255
;<Delay> 6000
M106 S0
;<Slice> Blank
G1 Z4.000 F120
G1 Z-3.950 F120
;<Delay> 6000

;<Slice> 503
M106 S255
;<Delay> 6000
M106 S0
;<Slice> Blank
G1 Z4.000 F120
G1 Z-3.950 F120
;<Delay> 6000

;<Slice> 504
M106 S255
;<Delay> 6000
M106 S0
;<Slice> Blank
G1 Z4.000 F120
G1 Z-3.950 F120
;<Delay> 6000

;<Slice> 505
M106 S255
;<Delay> 6000
M106 S0
;<Slice> Blank
G1 Z4.000 F120
G1 Z-3.950 F120
;<Delay> 6000

;<Slice> 506
M106 S255
;<Delay> 6000
M106 S0
;<Slice> Blank
G1 Z4.000 F120
G1 Z-3.950 F120
;<Delay> 6000

;<Slice> 507
M106 S255
;<Delay> 6000
M106 S0
;<Slice> Blank
G1 Z4.000 F120
G1 Z-3.950 F120
;<Delay> 6000

;<Slice> 508
M106 S255
;<Delay> 6000
M106 S0
;<Slice> Blank
G1 Z4.000 F120
G1 Z-3.950 F120
;<Delay> 6000

;<Slice> 509
M106 S255
;<Delay> 6000
M106 S0
;<Slice> Blank
G1 Z4.000 F120
G1 Z-3.950 F120
;<Delay> 6000

;<Slice> 510
M106 S255
;<Delay> 6000
M106 S0
;<Slice> Blank
G1 Z4.000 F120
G1 Z-3.950 F120
;<Delay> 6000

;<Slice> 511
M106 S255
;<Delay> 6000
M106 S0
;<Slice> Blank
G1 Z4.000 F120
G1 Z-3.950 F120
;<Delay> 6000

;<Slice> 512
M106 S255
;<Delay> 6000
M106 S0
;<Slice> Blank
G1 Z4.000 F120
G1 Z-3.950 F120
;<Delay> 6000

;<Slice> 513
M106 S255
;<Delay> 6000
M106 S0
;<Slice> Blank
G1 Z4.000 F120
G1 Z-3.950 F120
;<Delay> 6000

;<Slice> 514
M106 S255
;<Delay> 6000
M106 S0
;<Slice> Blank
G1 Z4.000 F120
G1 Z-3.950 F120
;<Delay> 6000

;<Slice> 515
M106 S255
;<Delay> 6000
M106 S0
;<Slice> Blank
G1 Z4.000 F120
G1 Z-3.950 F120
;<Delay> 6000

;<Slice> 516
M106 S255
;<Delay> 6000
M106 S0
;<Slice> Blank
G1 Z4.000 F120
G1 Z-3.950 F120
;<Delay> 6000

;<Slice> 517
M106 S255
;<Delay> 6000
M106 S0
;<Slice> Blank
G1 Z4.000 F120
G1 Z-3.950 F120
;<Delay> 6000

;<Slice> 518
M106 S255
;<Delay> 6000
M106 S0
;<Slice> Blank
G1 Z4.000 F120
G1 Z-3.950 F120
;<Delay> 6000

;<Slice> 519
M106 S255
;<Delay> 6000
M106 S0
;<Slice> Blank
G1 Z4.000 F120
G1 Z-3.950 F120
;<Delay> 6000

;<Slice> 520
M106 S255
;<Delay> 6000
M106 S0
;<Slice> Blank
G1 Z4.000 F120
G1 Z-3.950 F120
;<Delay> 6000

;<Slice> 521
M106 S255
;<Delay> 6000
M106 S0
;<Slice> Blank
G1 Z4.000 F120
G1 Z-3.950 F120
;<Delay> 6000

;<Slice> 522
M106 S255
;<Delay> 6000
M106 S0
;<Slice> Blank
G1 Z4.000 F120
G1 Z-3.950 F120
;<Delay> 6000

;<Slice> 523
M106 S255
;<Delay> 6000
M106 S0
;<Slice> Blank
G1 Z4.000 F120
G1 Z-3.950 F120
;<Delay> 6000

;<Slice> 524
M106 S255
;<Delay> 6000
M106 S0
;<Slice> Blank
G1 Z4.000 F120
G1 Z-3.950 F120
;<Delay> 6000

;<Slice> 525
M106 S255
;<Delay> 6000
M106 S0
;<Slice> Blank
G1 Z4.000 F120
G1 Z-3.950 F120
;<Delay> 6000

;<Slice> 526
M106 S255
;<Delay> 6000
M106 S0
;<Slice> Blank
G1 Z4.000 F120
G1 Z-3.950 F120
;<Delay> 6000

;<Slice> 527
M106 S255
;<Delay> 6000
M106 S0
;<Slice> Blank
G1 Z4.000 F120
G1 Z-3.950 F120
;<Delay> 6000

;<Slice> 528
M106 S255
;<Delay> 6000
M106 S0
;<Slice> Blank
G1 Z4.000 F120
G1 Z-3.950 F120
;<Delay> 6000

;<Slice> 529
M106 S255
;<Delay> 6000
M106 S0
;<Slice> Blank
G1 Z4.000 F120
G1 Z-3.950 F120
;<Delay> 6000

;<Slice> 530
M106 S255
;<Delay> 6000
M106 S0
;<Slice> Blank
G1 Z4.000 F120
G1 Z-3.950 F120
;<Delay> 6000

;<Slice> 531
M106 S255
;<Delay> 6000
M106 S0
;<Slice> Blank
G1 Z4.000 F120
G1 Z-3.950 F120
;<Delay> 6000

;<Slice> 532
M106 S255
;<Delay> 6000
M106 S0
;<Slice> Blank
G1 Z4.000 F120
G1 Z-3.950 F120
;<Delay> 6000

;<Slice> 533
M106 S255
;<Delay> 6000
M106 S0
;<Slice> Blank
G1 Z4.000 F120
G1 Z-3.950 F120
;<Delay> 6000

;<Slice> 534
M106 S255
;<Delay> 6000
M106 S0
;<Slice> Blank
G1 Z4.000 F120
G1 Z-3.950 F120
;<Delay> 6000

;<Slice> 535
M106 S255
;<Delay> 6000
M106 S0
;<Slice> Blank
G1 Z4.000 F120
G1 Z-3.950 F120
;<Delay> 6000

;<Slice> 536
M106 S255
;<Delay> 6000
M106 S0
;<Slice> Blank
G1 Z4.000 F120
G1 Z-3.950 F120
;<Delay> 6000

;<Slice> 537
M106 S255
;<Delay> 6000
M106 S0
;<Slice> Blank
G1 Z4.000 F120
G1 Z-3.950 F120
;<Delay> 6000

;<Slice> 538
M106 S255
;<Delay> 6000
M106 S0
;<Slice> Blank
G1 Z4.000 F120
G1 Z-3.950 F120
;<Delay> 6000

;<Slice> 539
M106 S255
;<Delay> 6000
M106 S0
;<Slice> Blank
G1 Z4.000 F120
G1 Z-3.950 F120
;<Delay> 6000

;<Slice> 540
M106 S255
;<Delay> 6000
M106 S0
;<Slice> Blank
G1 Z4.000 F120
G1 Z-3.950 F120
;<Delay> 6000

;<Slice> 541
M106 S255
;<Delay> 6000
M106 S0
;<Slice> Blank
G1 Z4.000 F120
G1 Z-3.950 F120
;<Delay> 6000

;<Slice> 542
M106 S255
;<Delay> 6000
M106 S0
;<Slice> Blank
G1 Z4.000 F120
G1 Z-3.950 F120
;<Delay> 6000

;<Slice> 543
M106 S255
;<Delay> 6000
M106 S0
;<Slice> Blank
G1 Z4.000 F120
G1 Z-3.950 F120
;<Delay> 6000

;<Slice> 544
M106 S255
;<Delay> 6000
M106 S0
;<Slice> Blank
G1 Z4.000 F120
G1 Z-3.950 F120
;<Delay> 6000

;<Slice> 545
M106 S255
;<Delay> 6000
M106 S0
;<Slice> Blank
G1 Z4.000 F120
G1 Z-3.950 F120
;<Delay> 6000

;<Slice> 546
M106 S255
;<Delay> 6000
M106 S0
;<Slice> Blank
G1 Z4.000 F120
G1 Z-3.950 F120
;<Delay> 6000

;<Slice> 547
M106 S255
;<Delay> 6000
M106 S0
;<Slice> Blank
G1 Z4.000 F120
G1 Z-3.950 F120
;<Delay> 6000

;<Slice> 548
M106 S255
;<Delay> 6000
M106 S0
;<Slice> Blank
G1 Z4.000 F120
G1 Z-3.950 F120
;<Delay> 6000

;<Slice> 549
M106 S255
;<Delay> 6000
M106 S0
;<Slice> Blank
G1 Z4.000 F120
G1 Z-3.950 F120
;<Delay> 6000

;<Slice> 550
M106 S255
;<Delay> 6000
M106 S0
;<Slice> Blank
G1 Z4.000 F120
G1 Z-3.950 F120
;<Delay> 6000

;<Slice> 551
M106 S255
;<Delay> 6000
M106 S0
;<Slice> Blank
G1 Z4.000 F120
G1 Z-3.950 F120
;<Delay> 6000

;<Slice> 552
M106 S255
;<Delay> 6000
M106 S0
;<Slice> Blank
G1 Z4.000 F120
G1 Z-3.950 F120
;<Delay> 6000

;<Slice> 553
M106 S255
;<Delay> 6000
M106 S0
;<Slice> Blank
G1 Z4.000 F120
G1 Z-3.950 F120
;<Delay> 6000

;<Slice> 554
M106 S255
;<Delay> 6000
M106 S0
;<Slice> Blank
G1 Z4.000 F120
G1 Z-3.950 F120
;<Delay> 6000

;<Slice> 555
M106 S255
;<Delay> 6000
M106 S0
;<Slice> Blank
G1 Z4.000 F120
G1 Z-3.950 F120
;<Delay> 6000

;<Slice> 556
M106 S255
;<Delay> 6000
M106 S0
;<Slice> Blank
G1 Z4.000 F120
G1 Z-3.950 F120
;<Delay> 6000

;<Slice> 557
M106 S255
;<Delay> 6000
M106 S0
;<Slice> Blank
G1 Z4.000 F120
G1 Z-3.950 F120
;<Delay> 6000

;<Slice> 558
M106 S255
;<Delay> 6000
M106 S0
;<Slice> Blank
G1 Z4.000 F120
G1 Z-3.950 F120
;<Delay> 6000

;<Slice> 559
M106 S255
;<Delay> 6000
M106 S0
;<Slice> Blank
G1 Z4.000 F120
G1 Z-3.950 F120
;<Delay> 6000

;<Slice> 560
M106 S255
;<Delay> 6000
M106 S0
;<Slice> Blank
G1 Z4.000 F120
G1 Z-3.950 F120
;<Delay> 6000

;<Slice> 561
M106 S255
;<Delay> 6000
M106 S0
;<Slice> Blank
G1 Z4.000 F120
G1 Z-3.950 F120
;<Delay> 6000

;<Slice> 562
M106 S255
;<Delay> 6000
M106 S0
;<Slice> Blank
G1 Z4.000 F120
G1 Z-3.950 F120
;<Delay> 6000

;<Slice> 563
M106 S255
;<Delay> 6000
M106 S0
;<Slice> Blank
G1 Z4.000 F120
G1 Z-3.950 F120
;<Delay> 6000

;<Slice> 564
M106 S255
;<Delay> 6000
M106 S0
;<Slice> Blank
G1 Z4.000 F120
G1 Z-3.950 F120
;<Delay> 6000

;<Slice> 565
M106 S255
;<Delay> 6000
M106 S0
;<Slice> Blank
G1 Z4.000 F120
G1 Z-3.950 F120
;<Delay> 6000

;<Slice> 566
M106 S255
;<Delay> 6000
M106 S0
;<Slice> Blank
G1 Z4.000 F120
G1 Z-3.950 F120
;<Delay> 6000

;<Slice> 567
M106 S255
;<Delay> 6000
M106 S0
;<Slice> Blank
G1 Z4.000 F120
G1 Z-3.950 F120
;<Delay> 6000

;<Slice> 568
M106 S255
;<Delay> 6000
M106 S0
;<Slice> Blank
G1 Z4.000 F120
G1 Z-3.950 F120
;<Delay> 6000

;<Slice> 569
M106 S255
;<Delay> 6000
M106 S0
;<Slice> Blank
G1 Z4.000 F120
G1 Z-3.950 F120
;<Delay> 6000

;<Slice> 570
M106 S255
;<Delay> 6000
M106 S0
;<Slice> Blank
G1 Z4.000 F120
G1 Z-3.950 F120
;<Delay> 6000

;<Slice> 571
M106 S255
;<Delay> 6000
M106 S0
;<Slice> Blank
G1 Z4.000 F120
G1 Z-3.950 F120
;<Delay> 6000

;<Slice> 572
M106 S255
;<Delay> 6000
M106 S0
;<Slice> Blank
G1 Z4.000 F120
G1 Z-3.950 F120
;<Delay> 6000

;<Slice> 573
M106 S255
;<Delay> 6000
M106 S0
;<Slice> Blank
G1 Z4.000 F120
G1 Z-3.950 F120
;<Delay> 6000

;<Slice> 574
M106 S255
;<Delay> 6000
M106 S0
;<Slice> Blank
G1 Z4.000 F120
G1 Z-3.950 F120
;<Delay> 6000

;<Slice> 575
M106 S255
;<Delay> 6000
M106 S0
;<Slice> Blank
G1 Z4.000 F120
G1 Z-3.950 F120
;<Delay> 6000

;<Slice> 576
M106 S255
;<Delay> 6000
M106 S0
;<Slice> Blank
G1 Z4.000 F120
G1 Z-3.950 F120
;<Delay> 6000

;<Slice> 577
M106 S255
;<Delay> 6000
M106 S0
;<Slice> Blank
G1 Z4.000 F120
G1 Z-3.950 F120
;<Delay> 6000

;<Slice> 578
M106 S255
;<Delay> 6000
M106 S0
;<Slice> Blank
G1 Z4.000 F120
G1 Z-3.950 F120
;<Delay> 6000

;<Slice> 579
M106 S255
;<Delay> 6000
M106 S0
;<Slice> Blank
G1 Z4.000 F120
G1 Z-3.950 F120
;<Delay> 6000

;<Slice> 580
M106 S255
;<Delay> 6000
M106 S0
;<Slice> Blank
G1 Z4.000 F120
G1 Z-3.950 F120
;<Delay> 6000

;<Slice> 581
M106 S255
;<Delay> 6000
M106 S0
;<Slice> Blank
G1 Z4.000 F120
G1 Z-3.950 F120
;<Delay> 6000

;<Slice> 582
M106 S255
;<Delay> 6000
M106 S0
;<Slice> Blank
G1 Z4.000 F120
G1 Z-3.950 F120
;<Delay> 6000

;<Slice> 583
M106 S255
;<Delay> 6000
M106 S0
;<Slice> Blank
G1 Z4.000 F120
G1 Z-3.950 F120
;<Delay> 6000

;<Slice> 584
M106 S255
;<Delay> 6000
M106 S0
;<Slice> Blank
G1 Z4.000 F120
G1 Z-3.950 F120
;<Delay> 6000

;<Slice> 585
M106 S255
;<Delay> 6000
M106 S0
;<Slice> Blank
G1 Z4.000 F120
G1 Z-3.950 F120
;<Delay> 6000

;<Slice> 586
M106 S255
;<Delay> 6000
M106 S0
;<Slice> Blank
G1 Z4.000 F120
G1 Z-3.950 F120
;<Delay> 6000

;<Slice> 587
M106 S255
;<Delay> 6000
M106 S0
;<Slice> Blank
G1 Z4.000 F120
G1 Z-3.950 F120
;<Delay> 6000

;<Slice> 588
M106 S255
;<Delay> 6000
M106 S0
;<Slice> Blank
G1 Z4.000 F120
G1 Z-3.950 F120
;<Delay> 6000

;<Slice> 589
M106 S255
;<Delay> 6000
M106 S0
;<Slice> Blank
G1 Z4.000 F120
G1 Z-3.950 F120
;<Delay> 6000

;<Slice> 590
M106 S255
;<Delay> 6000
M106 S0
;<Slice> Blank
G1 Z4.000 F120
G1 Z-3.950 F120
;<Delay> 6000

;<Slice> 591
M106 S255
;<Delay> 6000
M106 S0
;<Slice> Blank
G1 Z4.000 F120
G1 Z-3.950 F120
;<Delay> 6000

;<Slice> 592
M106 S255
;<Delay> 6000
M106 S0
;<Slice> Blank
G1 Z4.000 F120
G1 Z-3.950 F120
;<Delay> 6000

;<Slice> 593
M106 S255
;<Delay> 6000
M106 S0
;<Slice> Blank
G1 Z4.000 F120
G1 Z-3.950 F120
;<Delay> 6000

;<Slice> 594
M106 S255
;<Delay> 6000
M106 S0
;<Slice> Blank
G1 Z4.000 F120
G1 Z-3.950 F120
;<Delay> 6000

;<Slice> 595
M106 S255
;<Delay> 6000
M106 S0
;<Slice> Blank
G1 Z4.000 F120
G1 Z-3.950 F120
;<Delay> 6000

;<Slice> 596
M106 S255
;<Delay> 6000
M106 S0
;<Slice> Blank
G1 Z4.000 F120
G1 Z-3.950 F120
;<Delay> 6000

;<Slice> 597
M106 S255
;<Delay> 6000
M106 S0
;<Slice> Blank
G1 Z4.000 F120
G1 Z-3.950 F120
;<Delay> 6000

;<Slice> 598
M106 S255
;<Delay> 6000
M106 S0
;<Slice> Blank
G1 Z4.000 F120
G1 Z-3.950 F120
;<Delay> 6000

;<Slice> 599
M106 S255
;<Delay> 6000
M106 S0
;<Slice> Blank
G1 Z4.000 F120
G1 Z-3.950 F120
;<Delay> 6000

;<Slice> 600
M106 S255
;<Delay> 6000
M106 S0
;<Slice> Blank
G1 Z4.000 F120
G1 Z-3.950 F120
;<Delay> 6000

;<Slice> 601
M106 S255
;<Delay> 6000
M106 S0
;<Slice> Blank
G1 Z4.000 F120
G1 Z-3.950 F120
;<Delay> 6000

;<Slice> 602
M106 S255
;<Delay> 6000
M106 S0
;<Slice> Blank
G1 Z4.000 F120
G1 Z-3.950 F120
;<Delay> 6000

;<Slice> 603
M106 S255
;<Delay> 6000
M106 S0
;<Slice> Blank
G1 Z4.000 F120
G1 Z-3.950 F120
;<Delay> 6000

;<Slice> 604
M106 S255
;<Delay> 6000
M106 S0
;<Slice> Blank
G1 Z4.000 F120
G1 Z-3.950 F120
;<Delay> 6000

;<Slice> 605
M106 S255
;<Delay> 6000
M106 S0
;<Slice> Blank
G1 Z4.000 F120
G1 Z-3.950 F120
;<Delay> 6000

;<Slice> 606
M106 S255
;<Delay> 6000
M106 S0
;<Slice> Blank
G1 Z4.000 F120
G1 Z-3.950 F120
;<Delay> 6000

;<Slice> 607
M106 S255
;<Delay> 6000
M106 S0
;<Slice> Blank
G1 Z4.000 F120
G1 Z-3.950 F120
;<Delay> 6000

;<Slice> 608
M106 S255
;<Delay> 6000
M106 S0
;<Slice> Blank
G1 Z4.000 F120
G1 Z-3.950 F120
;<Delay> 6000

;<Slice> 609
M106 S255
;<Delay> 6000
M106 S0
;<Slice> Blank
G1 Z4.000 F120
G1 Z-3.950 F120
;<Delay> 6000

;<Slice> 610
M106 S255
;<Delay> 6000
M106 S0
;<Slice> Blank
G1 Z4.000 F120
G1 Z-3.950 F120
;<Delay> 6000

;<Slice> 611
M106 S255
;<Delay> 6000
M106 S0
;<Slice> Blank
G1 Z4.000 F120
G1 Z-3.950 F120
;<Delay> 6000

;<Slice> 612
M106 S255
;<Delay> 6000
M106 S0
;<Slice> Blank
G1 Z4.000 F120
G1 Z-3.950 F120
;<Delay> 6000

;<Slice> 613
M106 S255
;<Delay> 6000
M106 S0
;<Slice> Blank
G1 Z4.000 F120
G1 Z-3.950 F120
;<Delay> 6000

;<Slice> 614
M106 S255
;<Delay> 6000
M106 S0
;<Slice> Blank
G1 Z4.000 F120
G1 Z-3.950 F120
;<Delay> 6000

;<Slice> 615
M106 S255
;<Delay> 6000
M106 S0
;<Slice> Blank
G1 Z4.000 F120
G1 Z-3.950 F120
;<Delay> 6000

;<Slice> 616
M106 S255
;<Delay> 6000
M106 S0
;<Slice> Blank
G1 Z4.000 F120
G1 Z-3.950 F120
;<Delay> 6000

;<Slice> 617
M106 S255
;<Delay> 6000
M106 S0
;<Slice> Blank
G1 Z4.000 F120
G1 Z-3.950 F120
;<Delay> 6000

;<Slice> 618
M106 S255
;<Delay> 6000
M106 S0
;<Slice> Blank
G1 Z4.000 F120
G1 Z-3.950 F120
;<Delay> 6000

;<Slice> 619
M106 S255
;<Delay> 6000
M106 S0
;<Slice> Blank
G1 Z4.000 F120
G1 Z-3.950 F120
;<Delay> 6000

;<Slice> 620
M106 S255
;<Delay> 6000
M106 S0
;<Slice> Blank
G1 Z4.000 F120
G1 Z-3.950 F120
;<Delay> 6000

;<Slice> 621
M106 S255
;<Delay> 6000
M106 S0
;<Slice> Blank
G1 Z4.000 F120
G1 Z-3.950 F120
;<Delay> 6000

;<Slice> 622
M106 S255
;<Delay> 6000
M106 S0
;<Slice> Blank
G1 Z4.000 F120
G1 Z-3.950 F120
;<Delay> 6000

;<Slice> 623
M106 S255
;<Delay> 6000
M106 S0
;<Slice> Blank
G1 Z4.000 F120
G1 Z-3.950 F120
;<Delay> 6000

;<Slice> 624
M106 S255
;<Delay> 6000
M106 S0
;<Slice> Blank
G1 Z4.000 F120
G1 Z-3.950 F120
;<Delay> 6000

;<Slice> 625
M106 S255
;<Delay> 6000
M106 S0
;<Slice> Blank
G1 Z4.000 F120
G1 Z-3.950 F120
;<Delay> 6000

;<Slice> 626
M106 S255
;<Delay> 6000
M106 S0
;<Slice> Blank
G1 Z4.000 F120
G1 Z-3.950 F120
;<Delay> 6000

;<Slice> 627
M106 S255
;<Delay> 6000
M106 S0
;<Slice> Blank
G1 Z4.000 F120
G1 Z-3.950 F120
;<Delay> 6000

;<Slice> 628
M106 S255
;<Delay> 6000
M106 S0
;<Slice> Blank
G1 Z4.000 F120
G1 Z-3.950 F120
;<Delay> 6000

;<Slice> 629
M106 S255
;<Delay> 6000
M106 S0
;<Slice> Blank
G1 Z4.000 F120
G1 Z-3.950 F120
;<Delay> 6000

;<Slice> 630
M106 S255
;<Delay> 6000
M106 S0
;<Slice> Blank
G1 Z4.000 F120
G1 Z-3.950 F120
;<Delay> 6000

;<Slice> 631
M106 S255
;<Delay> 6000
M106 S0
;<Slice> Blank
G1 Z4.000 F120
G1 Z-3.950 F120
;<Delay> 6000

;<Slice> 632
M106 S255
;<Delay> 6000
M106 S0
;<Slice> Blank
G1 Z4.000 F120
G1 Z-3.950 F120
;<Delay> 6000

;<Slice> 633
M106 S255
;<Delay> 6000
M106 S0
;<Slice> Blank
G1 Z4.000 F120
G1 Z-3.950 F120
;<Delay> 6000

;<Slice> 634
M106 S255
;<Delay> 6000
M106 S0
;<Slice> Blank
G1 Z4.000 F120
G1 Z-3.950 F120
;<Delay> 6000

;<Slice> 635
M106 S255
;<Delay> 6000
M106 S0
;<Slice> Blank
G1 Z4.000 F120
G1 Z-3.950 F120
;<Delay> 6000

;<Slice> 636
M106 S255
;<Delay> 6000
M106 S0
;<Slice> Blank
G1 Z4.000 F120
G1 Z-3.950 F120
;<Delay> 6000

;<Slice> 637
M106 S255
;<Delay> 6000
M106 S0
;<Slice> Blank
G1 Z4.000 F120
G1 Z-3.950 F120
;<Delay> 6000

;<Slice> 638
M106 S255
;<Delay> 6000
M106 S0
;<Slice> Blank
G1 Z4.000 F120
G1 Z-3.950 F120
;<Delay> 6000

;<Slice> 639
M106 S255
;<Delay> 6000
M106 S0
;<Slice> Blank
G1 Z4.000 F120
G1 Z-3.950 F120
;<Delay> 6000

;<Slice> 640
M106 S255
;<Delay> 6000
M106 S0
;<Slice> Blank
G1 Z4.000 F120
G1 Z-3.950 F120
;<Delay> 6000

;<Slice> 641
M106 S255
;<Delay> 6000
M106 S0
;<Slice> Blank
G1 Z4.000 F120
G1 Z-3.950 F120
;<Delay> 6000

;<Slice> 642
M106 S255
;<Delay> 6000
M106 S0
;<Slice> Blank
G1 Z4.000 F120
G1 Z-3.950 F120
;<Delay> 6000

;<Slice> 643
M106 S255
;<Delay> 6000
M106 S0
;<Slice> Blank
G1 Z4.000 F120
G1 Z-3.950 F120
;<Delay> 6000

;<Slice> 644
M106 S255
;<Delay> 6000
M106 S0
;<Slice> Blank
G1 Z4.000 F120
G1 Z-3.950 F120
;<Delay> 6000

;<Slice> 645
M106 S255
;<Delay> 6000
M106 S0
;<Slice> Blank
G1 Z4.000 F120
G1 Z-3.950 F120
;<Delay> 6000

;<Slice> 646
M106 S255
;<Delay> 6000
M106 S0
;<Slice> Blank
G1 Z4.000 F120
G1 Z-3.950 F120
;<Delay> 6000

;<Slice> 647
M106 S255
;<Delay> 6000
M106 S0
;<Slice> Blank
G1 Z4.000 F120
G1 Z-3.950 F120
;<Delay> 6000

;<Slice> 648
M106 S255
;<Delay> 6000
M106 S0
;<Slice> Blank
G1 Z4.000 F120
G1 Z-3.950 F120
;<Delay> 6000

;<Slice> 649
M106 S255
;<Delay> 6000
M106 S0
;<Slice> Blank
G1 Z4.000 F120
G1 Z-3.950 F120
;<Delay> 6000

;<Slice> 650
M106 S255
;<Delay> 6000
M106 S0
;<Slice> Blank
G1 Z4.000 F120
G1 Z-3.950 F120
;<Delay> 6000

;<Slice> 651
M106 S255
;<Delay> 6000
M106 S0
;<Slice> Blank
G1 Z4.000 F120
G1 Z-3.950 F120
;<Delay> 6000

;<Slice> 652
M106 S255
;<Delay> 6000
M106 S0
;<Slice> Blank
G1 Z4.000 F120
G1 Z-3.950 F120
;<Delay> 6000

;<Slice> 653
M106 S255
;<Delay> 6000
M106 S0
;<Slice> Blank
G1 Z4.000 F120
G1 Z-3.950 F120
;<Delay> 6000

;<Slice> 654
M106 S255
;<Delay> 6000
M106 S0
;<Slice> Blank
G1 Z4.000 F120
G1 Z-3.950 F120
;<Delay> 6000

;<Slice> 655
M106 S255
;<Delay> 6000
M106 S0
;<Slice> Blank
G1 Z4.000 F120
G1 Z-3.950 F120
;<Delay> 6000

;<Slice> 656
M106 S255
;<Delay> 6000
M106 S0
;<Slice> Blank
G1 Z4.000 F120
G1 Z-3.950 F120
;<Delay> 6000

;<Slice> 657
M106 S255
;<Delay> 6000
M106 S0
;<Slice> Blank
G1 Z4.000 F120
G1 Z-3.950 F120
;<Delay> 6000

;<Slice> 658
M106 S255
;<Delay> 6000
M106 S0
;<Slice> Blank
G1 Z4.000 F120
G1 Z-3.950 F120
;<Delay> 6000

;<Slice> 659
M106 S255
;<Delay> 6000
M106 S0
;<Slice> Blank
G1 Z4.000 F120
G1 Z-3.950 F120
;<Delay> 6000

;<Slice> 660
M106 S255
;<Delay> 6000
M106 S0
;<Slice> Blank
G1 Z4.000 F120
G1 Z-3.950 F120
;<Delay> 6000

;<Slice> 661
M106 S255
;<Delay> 6000
M106 S0
;<Slice> Blank
G1 Z4.000 F120
G1 Z-3.950 F120
;<Delay> 6000

;<Slice> 662
M106 S255
;<Delay> 6000
M106 S0
;<Slice> Blank
G1 Z4.000 F120
G1 Z-3.950 F120
;<Delay> 6000

;<Slice> 663
M106 S255
;<Delay> 6000
M106 S0
;<Slice> Blank
G1 Z4.000 F120
G1 Z-3.950 F120
;<Delay> 6000

;<Slice> 664
M106 S255
;<Delay> 6000
M106 S0
;<Slice> Blank
G1 Z4.000 F120
G1 Z-3.950 F120
;<Delay> 6000

;<Slice> 665
M106 S255
;<Delay> 6000
M106 S0
;<Slice> Blank
G1 Z4.000 F120
G1 Z-3.950 F120
;<Delay> 6000

;<Slice> 666
M106 S255
;<Delay> 6000
M106 S0
;<Slice> Blank
G1 Z4.000 F120
G1 Z-3.950 F120
;<Delay> 6000

;<Slice> 667
M106 S255
;<Delay> 6000
M106 S0
;<Slice> Blank
G1 Z4.000 F120
G1 Z-3.950 F120
;<Delay> 6000

M18 ;Disable Motors
M106 SO
G1 Z80
;<Completed>
